displaycal/.local/share/DisplayCAL/storage/U2719D #2 2021-07-22 15-47 2.2 F-S XYZLUT+MTX/U2719D #2 2021-07-22 15-47 2.2 F-S XYZLUT+MTX.ti1
CTI1   

DESCRIPTOR "Argyll Calibration Target chart information 1"
ORIGINATOR "Argyll targen"
CREATED "Thu Jul 22 15:33:46 2021"
SINGLE_DIM_STEPS "5"
COMP_GREY_STEPS "52"
MULTI_DIM_STEPS "5"
COLOR_REP "RGB"
TARGET_INSTRUMENT "X-Rite i1 DisplayPro, ColorMunki Display"
DISPLAY_TYPE_REFRESH "NO"
DISPLAY_TYPE_BASE_ID "1"
INSTRUMENT_TYPE_SPECTRAL "NO"
NORMALIZED_TO_Y_100 "YES"
VIDEO_LUT_CALIBRATION_POSSIBLE "YES"
OBSERVER "1931_2"
USE_BLACK_POINT_COMPENSATION "NO"
BLACK_POINT_CORRECTION "0.0"
HIRES_B2A "YES"
HIRES_B2A_SIZE "-1"
SMOOTH_B2A "YES"
PATCH_SEQUENCE "OPTIMIZE_DISPLAY_RESPONSE_DELAY"

NUMBER_OF_FIELDS 7
BEGIN_DATA_FORMAT
SAMPLE_ID RGB_R RGB_G RGB_B XYZ_X XYZ_Y XYZ_Z
END_DATA_FORMAT

NUMBER_OF_SETS 175
BEGIN_DATA
1 100.00000 100.00000 100.00000 95.355590 100.00000 112.30680
2 100.00000 100.00000 75.000000 86.595730 96.016390 63.475860
3 100.00000 100.00000 100.00000 95.299080 100.00450 112.30830
4 100.00000 100.00000 100.00000 95.299080 100.00450 112.30830
5 0.0000000 0.0000000 0.0000000 0.0981674 0.1007050 0.1546500
6 25.000000 0.0000000 0.0000000 2.0145070 1.0304150 0.1387580
7 50.000000 0.0000000 0.0000000 9.2279030 4.5286290 0.0790535
8 75.000000 0.0000000 0.0000000 21.962120 10.708950 1e-06
9 100.00000 0.0000000 0.0000000 42.476940 20.667550 1e-06
10 100.00000 0.0000000 25.000000 43.380110 21.084160 4.6573520
11 100.00000 25.000000 25.000000 45.040840 24.422580 5.1339450
12 100.00000 50.000000 25.000000 51.037930 36.820180 6.7103080
13 100.00000 75.000000 25.000000 61.475780 58.413010 9.4528170
14 0.0000000 0.0000000 25.000000 0.9320350 0.4799970 4.8510040
15 25.000000 0.0000000 25.000000 2.8731300 1.4222950 4.8900660
16 75.000000 0.0000000 100.00000 40.605140 19.123340 103.19990
17 100.00000 0.0000000 100.00000 60.926040 29.004210 103.11880
18 1.9608000 1.9608000 1.9608000 0.1095300 0.1129610 0.1673760
19 3.9216000 3.9216000 3.9216000 0.1558730 0.1624290 0.2207470
20 5.8824000 5.8824000 5.8824000 0.2563720 0.2687530 0.3376020
21 7.8431000 7.8431000 7.8431000 0.4147440 0.4366820 0.5237650
22 9.8039000 9.8039000 9.8039000 0.6322590 0.6685420 0.7801030
23 11.765000 11.765000 11.765000 0.9170810 0.9710180 1.1247470
24 13.726000 13.726000 13.726000 1.2567930 1.3330320 1.5123510
25 15.686000 15.686000 15.686000 1.6687460 1.7621080 1.9998480
26 17.647000 17.647000 17.647000 2.1556500 2.2676660 2.5732340
27 19.608000 19.608000 19.608000 2.6852990 2.8200020 3.1941310
28 21.569000 21.569000 21.569000 3.2684090 3.4376750 3.8803690
29 23.529000 23.529000 23.529000 3.9194570 4.1134300 4.6584640
30 27.451000 27.451000 27.451000 5.4589530 5.7256940 6.4910230
31 29.412000 29.412000 29.412000 6.3154070 6.6346130 7.5243010
32 31.373000 31.373000 31.373000 7.3062840 7.6664070 8.6877020
33 33.333000 33.333000 33.333000 8.3609060 8.7856830 9.9289250
34 35.294000 35.294000 35.294000 9.5314650 9.9929430 11.254740
35 37.255000 37.255000 37.255000 10.712900 11.248980 12.669310
36 39.216000 39.216000 39.216000 12.027120 12.641950 14.285780
37 41.176000 41.176000 41.176000 13.511760 14.197010 15.946590
38 43.137000 43.137000 43.137000 15.044820 15.783770 17.772710
39 45.098000 45.098000 45.098000 16.619570 17.462470 19.600280
40 47.059000 47.059000 47.059000 18.275060 19.185850 21.578810
41 49.020000 49.020000 49.020000 19.979650 20.952960 23.557320
42 50.980000 50.980000 50.980000 21.755650 22.843120 25.613280
43 52.941000 52.941000 52.941000 23.612380 24.777980 27.820200
44 54.902000 54.902000 54.902000 25.467200 26.742990 29.952100
45 56.863000 56.863000 56.863000 27.416650 28.783340 32.235460
46 58.824000 58.824000 58.824000 29.518240 30.991440 34.747240
47 60.784000 60.784000 60.784000 31.696730 33.304550 37.259950
48 62.745000 62.745000 62.745000 33.985660 35.693480 39.999620
49 64.706000 64.706000 64.706000 36.272690 38.112570 42.664270
50 66.667000 66.667000 66.667000 38.697950 40.668760 45.556850
51 68.627000 68.627000 68.627000 41.275350 43.392710 48.677840
52 70.588000 70.588000 70.588000 43.921250 46.172960 51.722790
53 72.549000 72.549000 72.549000 46.640470 49.046120 54.920190
54 76.471000 76.471000 76.471000 52.429630 55.032490 61.919850
55 78.431000 78.431000 78.431000 55.541260 58.237630 65.723550
56 80.392000 80.392000 80.392000 58.820610 61.683430 69.529630
57 82.353000 82.353000 82.353000 62.175190 65.191970 73.563180
58 84.314000 84.314000 84.314000 65.638300 68.806500 77.748660
59 86.275000 86.275000 86.275000 69.329450 72.596870 82.085040
60 88.235000 88.235000 88.235000 72.847930 76.406390 85.970930
61 90.196000 90.196000 90.196000 76.272780 80.237480 89.783830
62 92.157000 92.157000 92.157000 79.908190 84.201670 93.898640
63 94.118000 94.118000 94.118000 83.441710 87.842350 98.083100
64 96.078000 96.078000 96.078000 87.257200 91.739180 102.64690
65 98.039000 98.039000 98.039000 91.453880 96.076530 107.66850
66 25.000000 25.000000 0.0000000 3.6103040 4.2824510 0.5437070
67 50.000000 25.000000 0.0000000 10.876010 7.8231420 0.4862500
68 75.000000 25.000000 0.0000000 23.636160 14.024480 0.3827510
69 100.00000 25.000000 0.0000000 44.130420 24.000860 0.2205060
70 100.00000 50.000000 0.0000000 50.073410 36.354580 1.7730760
71 50.000000 50.000000 0.0000000 16.826730 20.040870 2.0164250
72 75.000000 50.000000 0.0000000 29.626260 26.294760 1.9179720
73 25.000000 50.000000 0.0000000 9.5396450 16.444610 2.0691940
74 25.000000 75.000000 0.0000000 19.927670 37.945260 4.7714360
75 50.000000 75.000000 0.0000000 27.286300 41.567710 4.7230720
76 75.000000 75.000000 0.0000000 40.100070 47.852250 4.6267040
77 100.00000 75.000000 0.0000000 60.562360 57.942760 4.4882360
78 25.000000 100.00000 0.0000000 36.243600 71.690300 9.0491650
79 50.000000 100.00000 0.0000000 43.607940 75.264480 8.9911980
80 75.000000 100.00000 0.0000000 56.421830 81.549030 8.8954540
81 100.00000 100.00000 0.0000000 76.804820 91.534460 8.7445750
82 100.00000 100.00000 25.000000 77.769630 92.018290 13.785920
83 50.000000 0.0000000 25.000000 10.191530 4.9712770 4.8828310
84 50.000000 25.000000 50.000000 15.079000 9.7665730 23.224190
85 0.0000000 25.000000 0.0000000 1.6502440 3.3036140 0.5556480
86 0.0000000 25.000000 25.000000 2.5156110 3.7234220 5.3445130
87 25.490000 25.490000 25.490000 4.6729350 4.8959270 5.5767420
88 50.000000 25.000000 25.000000 11.862290 8.2997470 5.3494440
89 75.000000 25.000000 25.000000 24.660410 14.515900 5.2679350
90 0.0000000 50.000000 0.0000000 7.4674080 15.370680 2.0700910
91 0.0000000 50.000000 25.000000 8.4216250 15.866180 6.8922310
92 25.000000 50.000000 25.000000 10.463550 16.975620 6.9520580
93 50.000000 50.000000 25.000000 17.860160 20.611220 6.9164140
94 75.000000 50.000000 25.000000 30.665510 26.865300 6.8457480
95 0.0000000 75.000000 0.0000000 17.897710 36.836190 4.7687840
96 0.0000000 75.000000 25.000000 18.814830 37.366990 9.6192200
97 25.000000 75.000000 25.000000 20.881240 38.537620 9.6641680
98 50.000000 75.000000 25.000000 28.317510 42.186430 9.6492910
99 75.000000 75.000000 25.000000 41.123470 48.440530 9.5815260
100 0.0000000 100.00000 0.0000000 34.207400 70.629480 9.0535480
101 0.0000000 100.00000 25.000000 35.125910 71.081670 13.939690
102 25.000000 100.00000 25.000000 37.188540 72.173520 13.995630
103 50.000000 100.00000 25.000000 44.621100 75.822220 13.963010
104 75.000000 100.00000 25.000000 57.425230 82.076260 13.886550
105 0.0000000 0.0000000 50.000000 4.0552470 1.8998710 22.448230
106 25.000000 0.0000000 50.000000 6.0554780 2.8625610 22.652670
107 50.000000 0.0000000 50.000000 13.363320 6.4128600 22.644750
108 75.000000 0.0000000 50.000000 26.182040 12.627430 22.649160
109 100.00000 0.0000000 50.000000 46.632450 22.541350 22.641710
110 100.00000 0.0000000 75.000000 52.218870 25.076430 54.136390
111 100.00000 25.000000 75.000000 53.923540 28.494850 54.793730
112 75.000000 0.0000000 25.000000 22.960770 11.169780 4.8051590
113 75.000000 25.000000 50.000000 27.886390 15.990490 23.229130
114 100.00000 25.000000 50.000000 48.250900 25.933140 23.224570
115 25.000000 25.000000 50.000000 7.7011200 6.1819000 23.232910
116 25.000000 50.000000 50.000000 13.691990 18.480510 24.859110
117 75.000000 50.000000 50.000000 33.929590 28.401500 24.857090
118 100.00000 50.000000 50.000000 54.386820 38.449640 24.928960
119 100.00000 50.000000 75.000000 60.001040 41.046000 56.424620
120 25.000000 75.000000 50.000000 24.118350 40.042780 27.612620
121 50.000000 75.000000 50.000000 31.571770 43.692120 27.679670
122 75.000000 75.000000 50.000000 44.456070 50.021040 27.685550
123 100.00000 75.000000 50.000000 64.840980 60.073190 27.683440
124 100.00000 75.000000 75.000000 70.484910 62.700690 59.255080
125 25.000000 100.00000 50.000000 40.415600 73.666370 32.064750
126 50.000000 100.00000 50.000000 47.867120 77.345870 32.056780
127 75.000000 100.00000 50.000000 60.758820 83.626590 32.061190
128 100.00000 100.00000 50.000000 81.061330 93.591780 32.134630
129 25.000000 0.0000000 75.000000 11.644990 5.3998050 54.071470
130 50.000000 0.0000000 75.000000 19.002460 8.9751550 54.063000
131 75.000000 0.0000000 75.000000 31.831140 15.181510 54.066940
132 75.000000 25.000000 75.000000 33.557120 18.582370 54.723280
133 75.000000 50.000000 100.00000 48.559750 35.146190 105.63700
134 25.000000 25.000000 75.000000 13.326020 8.7402350 54.727270
135 25.000000 50.000000 100.00000 28.175840 25.190960 105.71760
136 0.0000000 25.000000 50.000000 5.6715990 5.1649420 23.103600
137 0.0000000 25.000000 75.000000 11.269990 7.7124730 54.522450
138 0.0000000 50.000000 75.000000 17.228050 19.984540 56.224620
139 25.000000 50.000000 75.000000 19.320110 21.107520 56.355250
140 50.000000 50.000000 75.000000 26.757730 24.756380 56.346800
141 75.000000 50.000000 75.000000 39.614220 31.024020 56.351710
142 74.510000 74.510000 74.510000 49.564760 52.070440 58.496000
143 0.0000000 75.000000 75.000000 27.640500 41.516170 58.977640
144 25.000000 75.000000 75.000000 29.762280 42.670270 59.184260
145 50.000000 75.000000 75.000000 37.235100 46.332200 59.175290
146 0.0000000 75.000000 50.000000 22.012380 38.889150 27.481500
147 0.0000000 100.00000 50.000000 38.351340 72.604690 31.935090
148 0.0000000 100.00000 75.000000 43.967470 75.170890 63.505750
149 25.000000 100.00000 75.000000 45.980720 76.219020 63.560430
150 50.000000 100.00000 75.000000 53.488750 79.894030 63.550950
151 75.000000 100.00000 75.000000 66.361050 86.162150 63.631370
152 75.000000 100.00000 100.00000 75.231340 90.221580 112.68920
153 25.000000 0.0000000 100.00000 20.455060 9.3608120 103.58340
154 50.000000 0.0000000 100.00000 27.818390 12.936500 103.49890
155 0.0000000 0.0000000 75.000000 9.6342180 4.4237980 53.866920
156 0.0000000 0.0000000 100.00000 18.457060 8.3947910 103.53060
157 0.0000000 25.000000 100.00000 20.086090 11.688590 104.11050
158 25.000000 25.000000 100.00000 22.141950 12.701580 104.16320
159 50.000000 25.000000 100.00000 29.585060 16.332380 104.07830
160 75.000000 25.000000 100.00000 42.411840 22.568890 104.00720
161 100.00000 25.000000 100.00000 62.690130 32.484900 103.92810
162 100.00000 50.000000 100.00000 68.860350 45.141540 105.63550
163 50.000000 25.000000 75.000000 20.714530 12.345370 54.718850
164 50.000000 50.000000 100.00000 35.683870 28.865960 105.70810
165 0.0000000 50.000000 50.000000 11.562810 17.374620 24.653980
166 0.0000000 50.000000 100.00000 26.080190 24.055880 105.73850
167 0.0000000 75.000000 100.00000 36.541750 45.631220 108.49150
168 25.000000 75.000000 100.00000 38.667110 46.797430 108.54660
169 50.000000 75.000000 100.00000 46.173230 50.502590 108.46210
170 75.000000 75.000000 100.00000 59.057520 56.831520 108.46800
171 100.00000 75.000000 100.00000 79.356210 66.857030 108.39140
172 0.0000000 100.00000 100.00000 52.774090 79.210610 112.86820
173 25.000000 100.00000 100.00000 54.871650 80.315530 112.92230
174 50.000000 100.00000 100.00000 62.371270 83.941840 112.83580
175 100.00000 100.00000 100.00000 95.504140 100.15560 112.68670
END_DATA
