dotfiles/displaycal/.local/share/DisplayCAL/storage/U2719D #2 2021-07-22 15-47 2.2 F-S XYZLUT+MTX/U2719D #2 2021-07-22 15-47 2.2 F-S XYZLUT+MTX.cal
CAL    

DESCRIPTOR "Argyll Device Calibration Curves"
ORIGINATOR "Argyll dispcal"
CREATED "Thu Jul 22 15:56:35 2021"
DEVICE_CLASS "DISPLAY"
COLOR_REP "RGB"
VIDEO_LUT_CALIBRATION_POSSIBLE "YES"
TV_OUTPUT_ENCODING "NO"
DEVICE_TYPE "n"
NATIVE_TARGET_WHITE ""
TARGET_WHITE_XYZ "202.606853 213.837627 241.232192"
TARGET_GAMMA "2.2"
DEGREE_OF_BLACK_OUTPUT_OFFSET "1.0"
BLACK_POINT_CORRECTION "0.0"
BLACK_NEUTRAL_BLEND_RATE "4.0"
BLACK_POINT_HACK "YES"
QUALITY "low"

BEGIN_ARGYLL_DISPCAL_ARGS
-v2 -d2 -c1 -yn -P0.181943171402,0.500941619586,1.0 -ql -t -g2.2 -f1.0 -k0 -A4.0 -b
END_ARGYLL_DISPCAL_ARGS


NUMBER_OF_FIELDS 4
BEGIN_DATA_FORMAT
RGB_I RGB_R RGB_G RGB_B
END_DATA_FORMAT

NUMBER_OF_SETS 256
BEGIN_DATA
0.00000000 0.00000000 0.00000000 0.00000000
0.00392157 0.00171819 0.00165609 0.00159917
0.00784314 0.00349205 0.00336904 0.00325393
0.01176470 0.00532435 0.00514185 0.00496725
0.01568630 0.00721801 0.00697769 0.00674229
0.01960780 0.00917618 0.00887999 0.00858244
0.02352940 0.01120220 0.01085240 0.01049140
0.02745100 0.01329970 0.01289900 0.01247300
0.03137250 0.01547240 0.01502390 0.01453150
0.03529410 0.01772460 0.01723170 0.01667150
0.03921570 0.02006060 0.01952740 0.01889790
0.04313730 0.02248520 0.02191630 0.02121610
0.04705880 0.02500370 0.02440430 0.02363190
0.05098040 0.02762140 0.02699760 0.02615150
0.05490200 0.03034440 0.02970300 0.02878180
0.05882350 0.03317920 0.03252810 0.03153030
0.06274510 0.03613140 0.03547960 0.03440480
0.06666670 0.03920080 0.03855690 0.03740760
0.07058820 0.04238310 0.04175480 0.04053260
0.07450980 0.04567350 0.04506690 0.04377260
0.07843140 0.04906640 0.04848580 0.04712070
0.08235290 0.05255470 0.05200180 0.05056900
0.08627450 0.05612980 0.05560390 0.05410770
0.09019610 0.05978250 0.05928020 0.05772520
0.09411760 0.06350530 0.06302040 0.06141030
0.09803920 0.06729290 0.06681620 0.06515450
0.10196100 0.07114480 0.07066410 0.06895160
0.10588200 0.07506600 0.07456880 0.07280460
0.10980400 0.07906430 0.07853670 0.07672200
0.11372500 0.08314420 0.08257130 0.08071310
0.11764700 0.08731180 0.08667760 0.08478280
0.12156900 0.09156740 0.09085380 0.08893240
0.12549000 0.09591130 0.09510550 0.09316700
0.12941200 0.10034100 0.09942580 0.09747920
0.13333300 0.10485700 0.10382300 0.10187600
0.13725500 0.10944300 0.10827400 0.10634400
0.14117600 0.11410100 0.11277900 0.11086900
0.14509800 0.11880300 0.11732400 0.11544700
0.14902000 0.12353700 0.12188300 0.12004300
0.15294100 0.12829600 0.12645300 0.12464800
0.15686300 0.13305200 0.13102500 0.12925500
0.16078400 0.13778100 0.13556200 0.13383500
0.16470600 0.14248300 0.14007000 0.13837500
0.16862700 0.14716200 0.14455000 0.14288100
0.17254900 0.15180800 0.14900900 0.14736400
0.17647100 0.15640100 0.15343200 0.15181800
0.18039200 0.16096000 0.15782100 0.15623000
0.18431400 0.16548100 0.16218800 0.16062000
0.18823500 0.16997400 0.16653100 0.16498600
0.19215700 0.17444300 0.17086400 0.16933700
0.19607800 0.17886300 0.17517600 0.17367900
0.20000000 0.18322300 0.17944700 0.17798400
0.20392200 0.18755200 0.18366900 0.18223800
0.20784300 0.19184800 0.18787200 0.18646200
0.21176500 0.19610900 0.19204700 0.19065800
0.21568600 0.20033600 0.19619500 0.19482100
0.21960800 0.20455700 0.20031500 0.19894700
0.22352900 0.20877000 0.20443500 0.20305800
0.22745100 0.21295800 0.20855000 0.20716600
0.23137300 0.21712900 0.21265100 0.21125600
0.23529400 0.22128000 0.21674500 0.21533200
0.23921600 0.22544000 0.22082900 0.21939800
0.24313700 0.22963100 0.22492400 0.22345900
0.24705900 0.23384500 0.22905900 0.22755600
0.25098000 0.23807700 0.23322400 0.23168900
0.25490200 0.24232800 0.23741000 0.23584900
0.25882400 0.24659700 0.24161800 0.24003300
0.26274500 0.25089900 0.24584300 0.24424000
0.26666700 0.25524200 0.25009200 0.24846800
0.27058800 0.25959900 0.25438100 0.25274000
0.27451000 0.26395800 0.25868100 0.25703500
0.27843100 0.26831500 0.26297900 0.26133200
0.28235300 0.27267000 0.26727100 0.26562400
0.28627500 0.27701400 0.27155800 0.26990600
0.29019600 0.28132900 0.27583900 0.27418200
0.29411800 0.28560700 0.28009900 0.27843900
0.29803900 0.28988300 0.28432300 0.28266100
0.30196100 0.29417300 0.28853100 0.28685000
0.30588200 0.29846600 0.29275700 0.29105000
0.30980400 0.30276200 0.29699300 0.29526600
0.31372500 0.30704000 0.30123300 0.29948500
0.31764700 0.31129600 0.30546800 0.30371000
0.32156900 0.31553900 0.30967800 0.30791600
0.32549000 0.31976800 0.31387900 0.31210700
0.32941200 0.32398500 0.31806500 0.31628800
0.33333300 0.32818700 0.32224000 0.32045700
0.33725500 0.33237700 0.32640000 0.32461500
0.34117600 0.33658200 0.33054300 0.32875600
0.34509800 0.34079400 0.33468200 0.33288500
0.34902000 0.34499300 0.33884000 0.33703200
0.35294100 0.34917600 0.34299000 0.34118300
0.35686300 0.35334400 0.34712600 0.34532100
0.36078400 0.35749500 0.35125200 0.34944800
0.36470600 0.36163300 0.35536300 0.35356300
0.36862700 0.36575900 0.35946600 0.35766600
0.37254900 0.36989900 0.36355500 0.36176000
0.37647100 0.37404600 0.36764900 0.36584700
0.38039200 0.37819800 0.37175800 0.36995200
0.38431400 0.38232600 0.37587500 0.37406700
0.38823500 0.38642900 0.37999000 0.37819100
0.39215700 0.39050600 0.38407900 0.38229600
0.39607800 0.39454200 0.38814900 0.38638000
0.40000000 0.39852400 0.39218900 0.39044000
0.40392200 0.40248900 0.39617800 0.39445900
0.40784300 0.40648500 0.40011400 0.39842000
0.41176500 0.41051100 0.40405800 0.40235800
0.41568600 0.41455400 0.40803700 0.40633000
0.41960800 0.41860500 0.41204400 0.41033900
0.42352900 0.42266100 0.41606100 0.41436600
0.42745100 0.42672400 0.42008400 0.41840300
0.43137300 0.43079200 0.42411100 0.42244600
0.43529400 0.43484900 0.42814500 0.42649900
0.43921600 0.43888800 0.43218200 0.43055900
0.44313700 0.44290500 0.43621000 0.43461600
0.44705900 0.44690900 0.44022500 0.43866100
0.45098000 0.45093400 0.44421900 0.44268800
0.45490200 0.45496900 0.44821700 0.44670400
0.45882400 0.45900100 0.45223900 0.45074600
0.46274500 0.46301700 0.45626700 0.45480200
0.46666700 0.46702900 0.46028800 0.45885800
0.47058800 0.47103500 0.46429500 0.46289700
0.47451000 0.47503700 0.46830100 0.46693400
0.47843100 0.47903400 0.47230300 0.47096600
0.48235300 0.48302600 0.47630400 0.47499700
0.48627500 0.48701200 0.48030100 0.47902400
0.49019600 0.49099500 0.48429600 0.48304700
0.49411800 0.49497300 0.48828900 0.48706800
0.49803900 0.49895000 0.49228200 0.49108800
0.50196100 0.50295500 0.49627500 0.49510700
0.50588200 0.50696900 0.50027600 0.49912900
0.50980400 0.51097900 0.50430800 0.50318400
0.51372500 0.51498400 0.50834100 0.50724700
0.51764700 0.51898400 0.51237100 0.51130600
0.52156900 0.52297800 0.51639900 0.51536100
0.52549000 0.52696600 0.52042100 0.51941100
0.52941200 0.53095000 0.52443800 0.52345500
0.53333300 0.53492800 0.52844800 0.52749000
0.53725500 0.53890400 0.53245400 0.53152200
0.54117600 0.54287200 0.53645700 0.53554700
0.54509800 0.54682600 0.54045900 0.53957200
0.54902000 0.55079300 0.54445000 0.54358800
0.55294100 0.55477300 0.54843600 0.54759200
0.55686300 0.55876000 0.55244200 0.55161400
0.56078400 0.56273600 0.55646200 0.55565000
0.56470600 0.56670200 0.56048200 0.55969200
0.56862700 0.57064400 0.56449600 0.56372300
0.57254900 0.57458500 0.56849400 0.56774100
0.57647100 0.57855200 0.57246700 0.57173100
0.58039200 0.58253400 0.57645700 0.57573200
0.58431400 0.58651700 0.58047000 0.57976000
0.58823500 0.59049500 0.58448900 0.58379800
0.59215700 0.59446800 0.58850100 0.58783300
0.59607800 0.59843700 0.59250100 0.59185500
0.60000000 0.60241200 0.59649200 0.59586700
0.60392200 0.60639600 0.60047500 0.59987300
0.60784300 0.61038400 0.60446800 0.60388900
0.61176500 0.61437400 0.60846400 0.60791200
0.61568600 0.61836500 0.61246000 0.61193600
0.61960800 0.62236900 0.61645100 0.61595400
0.62352900 0.62638300 0.62045300 0.61998200
0.62745100 0.63038400 0.62446700 0.62402500
0.63137300 0.63435800 0.62848400 0.62807600
0.63529400 0.63830900 0.63248200 0.63211100
0.63921600 0.64222400 0.63646000 0.63612400
0.64313700 0.64610900 0.64041100 0.64011100
0.64705900 0.64996100 0.64433100 0.64406300
0.65098000 0.65376800 0.64822200 0.64798700
0.65490200 0.65751400 0.65207400 0.65187300
0.65882400 0.66119100 0.65586900 0.65570200
0.66274500 0.66480100 0.65958900 0.65945500
0.66666700 0.66837100 0.66323400 0.66312800
0.67058800 0.67198800 0.66680800 0.66672900
0.67451000 0.67566500 0.67039600 0.67034100
0.67843100 0.67940200 0.67405000 0.67402300
0.68235300 0.68319300 0.67777300 0.67777600
0.68627500 0.68702300 0.68156200 0.68159800
0.69019600 0.69087800 0.68540100 0.68547000
0.69411800 0.69475700 0.68927000 0.68937300
0.69803900 0.69866100 0.69316300 0.69330000
0.70196100 0.70259300 0.69707900 0.69725400
0.70588200 0.70653600 0.70102200 0.70123900
0.70980400 0.71048500 0.70498200 0.70524100
0.71372500 0.71443700 0.70894600 0.70924600
0.71764700 0.71838600 0.71291400 0.71325300
0.72156900 0.72231500 0.71688000 0.71725800
0.72549000 0.72622600 0.72083500 0.72124900
0.72941200 0.73011900 0.72477900 0.72522600
0.73333300 0.73401600 0.72870400 0.72918200
0.73725500 0.73791100 0.73263400 0.73314400
0.74117600 0.74181100 0.73656900 0.73710500
0.74509800 0.74571700 0.74051100 0.74107100
0.74902000 0.74963200 0.74446400 0.74504700
0.75294100 0.75355900 0.74843200 0.74903700
0.75686300 0.75748700 0.75241500 0.75304200
0.76078400 0.76141300 0.75640300 0.75704700
0.76470600 0.76534000 0.76039300 0.76105200
0.76862700 0.76926500 0.76438700 0.76505900
0.77254900 0.77319400 0.76838700 0.76906700
0.77647100 0.77713000 0.77239000 0.77307900
0.78039200 0.78106400 0.77640900 0.77710400
0.78431400 0.78497800 0.78043300 0.78112800
0.78823500 0.78887800 0.78444200 0.78513300
0.79215700 0.79276100 0.78844300 0.78912600
0.79607800 0.79660900 0.79243000 0.79309900
0.80000000 0.80042200 0.79638300 0.79703300
0.80392200 0.80425500 0.80029700 0.80092600
0.80784300 0.80813200 0.80423100 0.80484900
0.81176500 0.81204600 0.80821800 0.80882300
0.81568600 0.81598400 0.81224800 0.81283600
0.81960800 0.81994600 0.81630400 0.81687300
0.82352900 0.82391900 0.82038400 0.82093300
0.82745100 0.82790000 0.82447500 0.82500000
0.83137300 0.83188700 0.82857300 0.82907200
0.83529400 0.83587900 0.83267900 0.83315200
0.83921600 0.83986400 0.83678900 0.83723300
0.84313700 0.84383500 0.84089100 0.84130400
0.84705900 0.84779900 0.84498100 0.84536200
0.85098000 0.85175300 0.84906400 0.84941200
0.85490200 0.85568300 0.85313300 0.85344500
0.85882400 0.85959600 0.85716800 0.85744400
0.86274500 0.86352900 0.86120000 0.86144300
0.86666700 0.86747600 0.86525400 0.86546400
0.87058800 0.87143100 0.86931300 0.86949200
0.87451000 0.87540000 0.87337700 0.87352700
0.87843100 0.87936600 0.87744900 0.87757100
0.88235300 0.88331500 0.88150300 0.88159800
0.88627500 0.88724400 0.88553900 0.88560900
0.89019600 0.89115400 0.88954600 0.88959200
0.89411800 0.89508200 0.89355700 0.89358100
0.89803900 0.89901900 0.89758100 0.89758600
0.90196100 0.90295700 0.90160700 0.90159600
0.90588200 0.90688000 0.90562000 0.90559400
0.90980400 0.91078200 0.90960500 0.90956600
0.91372500 0.91468800 0.91358500 0.91353500
0.91764700 0.91859700 0.91756800 0.91750800
0.92156900 0.92249800 0.92154200 0.92147500
0.92549000 0.92639100 0.92550000 0.92542700
0.92941200 0.93028500 0.92945800 0.92938000
0.93333300 0.93417400 0.93340800 0.93332700
0.93725500 0.93806200 0.93735400 0.93727000
0.94117600 0.94194700 0.94129700 0.94121200
0.94509800 0.94583400 0.94523900 0.94515300
0.94902000 0.94971700 0.94917700 0.94909100
0.95294100 0.95359900 0.95311400 0.95302900
0.95686300 0.95748000 0.95704800 0.95696500
0.96078400 0.96136000 0.96098000 0.96090000
0.96470600 0.96523900 0.96490900 0.96483300
0.96862700 0.96911500 0.96883500 0.96876300
0.97254900 0.97298900 0.97275400 0.97268800
0.97647100 0.97685800 0.97666600 0.97660700
0.98039200 0.98072400 0.98057200 0.98052000
0.98431400 0.98458700 0.98447100 0.98442700
0.98823500 0.98844500 0.98836300 0.98832900
0.99215700 0.99230100 0.99224900 0.99222500
0.99607800 0.99615200 0.99612800 0.99611500
1.00000000 1.00000000 1.00000000 1.00000000
END_DATA
CAL    

DESCRIPTOR "Argyll Calibration options and model"
ORIGINATOR "Argyll dispcal"
CREATED "Thu Jul 22 15:56:35 202"

NUMBER_OF_FIELDS 3
BEGIN_DATA_FORMAT
R_P G_P B_P
END_DATA_FORMAT

NUMBER_OF_SETS 32
BEGIN_DATA
0.000257907 0.000767187 0.001326490
0.999742000 0.999233000 0.998674000
1.609907000 1.435503000 1.447052000
0.550803000 0.518733000 0.475255000
0.048787500 0.104348000 0.095432900
0.094258600 0.135996000 0.121054000
0.095791500 0.111917000 0.099843600
0.124807000 0.075410800 0.071953200
0.062557200 0.043029600 0.065430000
0.041961800 0.049559100 0.062216000
0.042181500 0.049707600 0.054515400
0.037286500 0.045837400 0.052629100
0.039159000 0.041587600 0.046502100
0.041527700 0.035116900 0.040454900
0.022212800 0.045095700 0.037177100
0.030046200 0.037223900 0.033426600
0.030232400 0.028652000 0.034081600
0.034648500 0.026295000 0.030792900
0.024398900 0.021643300 0.028066900
0.024143100 0.027222700 0.025498400
0.015803200 0.029629500 0.023347100
0.018051000 0.024244700 0.021472900
0.016374400 0.021420800 0.021017300
0.017414400 0.016892000 0.019606100
0.018207400 0.020440300 0.018570600
0.015843200 0.022013200 0.017120600
0.012563300 0.017692700 0.016420000
0.013071300 0.017536100 0.017819200
0.014566500 0.018857500 0.017481600
0.012199900 0.018574900 0.014654300
0.009692820 0.016846000 0.010859100
0.010518700 0.015286600 0.012051700
END_DATA
