dotfiles/displaycal/.local/share/DisplayCAL/storage/U2719D #2 2021-07-22 15-47 2.2 F-S XYZLUT+MTX/U2719D #2 2021-07-22 15-47 2.2 F-S XYZLUT+MTX.ti3
CTI3   

DESCRIPTOR "Argyll Calibration Target chart information 3"
ORIGINATOR "Argyll dispread"
CREATED "Thu Jul 22 15:56:35 2021"
DEVICE_CLASS "DISPLAY"
SINGLE_DIM_STEPS "5"
COMP_GREY_STEPS "52"
MULTI_DIM_STEPS "5"
COLOR_REP "RGB_XYZ"
TARGET_INSTRUMENT "X-Rite i1 DisplayPro, ColorMunki Display"
DISPLAY_TYPE_REFRESH "NO"
DISPLAY_TYPE_BASE_ID "1"
INSTRUMENT_TYPE_SPECTRAL "NO"
LUMINANCE_XYZ_CDM2 "202.606853 213.837627 241.232192"
NORMALIZED_TO_Y_100 "YES"
VIDEO_LUT_CALIBRATION_POSSIBLE "YES"

BEGIN_ARGYLL_COLPROF_ARGS
-v -qh -aX -bn -C "No copyright. Created with DisplayCAL 3.8.9.3 and ArgyllCMS 2.2.0" -M "DELL U2719D" -A "Dell, Inc."
END_ARGYLL_COLPROF_ARGS

OBSERVER "1931_2"
USE_BLACK_POINT_COMPENSATION "NO"
BLACK_POINT_CORRECTION "0.0"
HIRES_B2A "YES"
HIRES_B2A_SIZE "-1"
SMOOTH_B2A "YES"
PATCH_SEQUENCE "OPTIMIZE_DISPLAY_RESPONSE_DELAY"

NUMBER_OF_FIELDS 7
BEGIN_DATA_FORMAT
SAMPLE_ID RGB_R RGB_G RGB_B XYZ_X XYZ_Y XYZ_Z
END_DATA_FORMAT

NUMBER_OF_SETS 175
BEGIN_DATA
1 100.00000 100.00000 100.00000 94.747990 100.00000 112.81090
2 100.00000 100.00000 75.000000 86.006430 96.685540 66.358990
3 100.00000 100.00000 100.00000 94.706340 100.01920 112.72730
4 100.00000 100.00000 100.00000 94.724080 100.01970 112.81200
5 0.0000000 0.0000000 0.0000000 0.0911085 0.0937134 0.1642720
6 25.000000 0.0000000 0.0000000 1.8863730 1.0326270 0.2103140
7 50.000000 0.0000000 0.0000000 8.7177620 4.5885320 0.3699630
8 75.000000 0.0000000 0.0000000 20.862400 10.906480 0.6760520
9 100.00000 0.0000000 0.0000000 39.781430 20.764770 1.2135950
10 100.00000 0.0000000 25.000000 40.775340 21.134950 6.0184510
11 100.00000 25.000000 25.000000 42.376390 24.439610 6.5645900
12 100.00000 50.000000 25.000000 48.677450 36.847170 8.7394350
13 100.00000 75.000000 25.000000 59.907580 58.948130 12.684180
14 0.0000000 0.0000000 25.000000 0.9152080 0.4184340 4.6151870
15 25.000000 0.0000000 25.000000 2.7549440 1.3725180 4.8096550
16 75.000000 0.0000000 100.00000 39.140930 17.958750 99.361640
17 100.00000 0.0000000 100.00000 57.983500 27.790900 99.930230
18 1.9608000 1.9608000 1.9608000 0.1484560 0.1571250 0.2300050
19 3.9216000 3.9216000 3.9216000 0.2315960 0.2431900 0.3280850
20 5.8824000 5.8824000 5.8824000 0.3190270 0.3373180 0.4335400
21 7.8431000 7.8431000 7.8431000 0.4399660 0.4666790 0.5787410
22 9.8039000 9.8039000 9.8039000 0.6314750 0.6683880 0.8116540
23 11.765000 11.765000 11.765000 0.8898980 0.9445900 1.1173590
24 13.726000 13.726000 13.726000 1.2050300 1.2824150 1.4824720
25 15.686000 15.686000 15.686000 1.6037010 1.7040640 1.9530330
26 17.647000 17.647000 17.647000 2.0740290 2.1978460 2.5215260
27 19.608000 19.608000 19.608000 2.6300660 2.7736100 3.1918810
28 21.569000 21.569000 21.569000 3.2440850 3.4355920 3.9018780
29 23.529000 23.529000 23.529000 3.9037430 4.1225190 4.7010870
30 27.451000 27.451000 27.451000 5.4538200 5.7515500 6.5243540
31 29.412000 29.412000 29.412000 6.3705410 6.7119790 7.6358750
32 31.373000 31.373000 31.373000 7.3916680 7.7826670 8.8266750
33 33.333000 33.333000 33.333000 8.4648280 8.9305320 10.161760
34 35.294000 35.294000 35.294000 9.6217700 10.151920 11.501570
35 37.255000 37.255000 37.255000 10.891290 11.458060 13.041800
36 39.216000 39.216000 39.216000 12.192740 12.833000 14.586620
37 41.176000 41.176000 41.176000 13.538950 14.277130 16.197290
38 43.137000 43.137000 43.137000 14.998420 15.785580 17.896360
39 45.098000 45.098000 45.098000 16.542000 17.398340 19.775250
40 47.059000 47.059000 47.059000 18.116790 19.079890 21.655230
41 49.020000 49.020000 49.020000 19.813370 20.880370 23.705730
42 50.980000 50.980000 50.980000 21.580660 22.764310 25.756740
43 52.941000 52.941000 52.941000 23.399040 24.683720 27.977750
44 54.902000 54.902000 54.902000 25.360980 26.736200 30.283980
45 56.863000 56.863000 56.863000 27.371870 28.858010 32.676020
46 58.824000 58.824000 58.824000 29.537900 31.133690 35.323860
47 60.784000 60.784000 60.784000 31.774630 33.492820 37.972210
48 62.745000 62.745000 62.745000 34.042570 35.920740 40.621650
49 64.706000 64.706000 64.706000 36.361590 38.384130 43.441090
50 66.667000 66.667000 66.667000 38.735730 40.896590 46.260500
51 68.627000 68.627000 68.627000 41.255560 43.508270 49.249310
52 70.588000 70.588000 70.588000 43.871150 46.292450 52.325570
53 72.549000 72.549000 72.549000 46.575180 49.160620 55.487070
54 76.471000 76.471000 76.471000 52.260190 55.169780 62.236390
55 78.431000 78.431000 78.431000 55.274510 58.345700 65.909470
56 80.392000 80.392000 80.392000 58.363560 61.618660 69.413040
57 82.353000 82.353000 82.353000 61.595420 65.086010 73.344090
58 84.314000 84.314000 84.314000 64.961410 68.631780 77.273960
59 86.275000 86.275000 86.275000 68.415850 72.261540 81.289080
60 88.235000 88.235000 88.235000 71.889160 76.000610 85.476980
61 90.196000 90.196000 90.196000 75.604930 79.868790 89.917860
62 92.157000 92.157000 92.157000 79.288490 83.810800 94.361520
63 94.118000 94.118000 94.118000 83.172870 87.901090 98.974550
64 96.078000 96.078000 96.078000 87.110210 92.074280 103.50340
65 98.039000 98.039000 98.039000 91.180920 96.387230 108.37330
66 25.000000 25.000000 0.0000000 3.6379460 4.3824960 0.7885500
67 50.000000 25.000000 0.0000000 10.458830 7.9256450 0.9480510
68 75.000000 25.000000 0.0000000 22.676800 14.281870 1.2771380
69 100.00000 25.000000 0.0000000 41.492870 24.079300 1.7931460
70 100.00000 50.000000 0.0000000 47.667870 36.354330 3.9663300
71 50.000000 50.000000 0.0000000 16.836000 20.322880 3.1499290
72 75.000000 50.000000 0.0000000 28.980760 26.689510 3.4658390
73 25.000000 50.000000 0.0000000 9.9081180 16.681260 2.9666290
74 25.000000 75.000000 0.0000000 21.118960 38.836000 6.8605730
75 50.000000 75.000000 0.0000000 28.016930 42.408880 7.0489360
76 75.000000 75.000000 0.0000000 40.231360 48.770660 7.3930030
77 100.00000 75.000000 0.0000000 58.995210 58.573470 7.9641860
78 25.000000 100.00000 0.0000000 38.520010 73.266230 13.000380
79 50.000000 100.00000 0.0000000 45.504170 76.814320 13.180480
80 75.000000 100.00000 0.0000000 57.714930 83.230350 13.548400
81 100.00000 100.00000 0.0000000 76.474160 92.999110 14.171450
82 100.00000 100.00000 25.000000 77.358580 93.427280 18.799310
83 50.000000 0.0000000 25.000000 9.5190330 4.8909700 4.9669090
84 50.000000 25.000000 50.000000 14.505600 9.5266140 22.763480
85 0.0000000 25.000000 0.0000000 1.7625040 3.3905070 0.7341280
86 0.0000000 25.000000 25.000000 2.6034120 3.7504300 5.2063490
87 25.490000 25.490000 25.490000 4.6419300 4.8911800 5.5704250
88 50.000000 25.000000 25.000000 11.346730 8.3062510 5.5890140
89 75.000000 25.000000 25.000000 23.575980 14.656120 5.9341660
90 0.0000000 50.000000 0.0000000 8.0341500 15.705790 2.8947350
91 0.0000000 50.000000 25.000000 8.8756200 16.098720 7.3914720
92 25.000000 50.000000 25.000000 10.756480 17.128760 7.5375930
93 50.000000 50.000000 25.000000 17.601930 20.652660 7.7383690
94 75.000000 50.000000 25.000000 29.770470 26.999570 8.0525450
95 0.0000000 75.000000 0.0000000 19.252020 37.894650 6.7482910
96 0.0000000 75.000000 25.000000 20.091160 38.233150 11.192580
97 25.000000 75.000000 25.000000 21.960830 39.140670 11.391830
98 50.000000 75.000000 25.000000 28.919860 42.817160 11.649930
99 75.000000 75.000000 25.000000 41.076240 49.129790 11.979980
100 0.0000000 100.00000 0.0000000 36.574890 72.186840 12.810590
101 0.0000000 100.00000 25.000000 37.453230 72.594370 17.294170
102 25.000000 100.00000 25.000000 39.354520 73.570680 17.496520
103 50.000000 100.00000 25.000000 46.334850 77.227370 17.741000
104 75.000000 100.00000 25.000000 58.625100 83.584490 18.142600
105 0.0000000 0.0000000 50.000000 4.0053140 1.6096550 21.445500
106 25.000000 0.0000000 50.000000 5.8761130 2.5694450 21.851180
107 50.000000 0.0000000 50.000000 12.729630 6.1273280 22.204500
108 75.000000 0.0000000 50.000000 24.991560 12.504020 22.586120
109 100.00000 0.0000000 50.000000 43.942850 22.354480 23.493140
110 100.00000 0.0000000 75.000000 49.556130 24.546400 53.727910
111 100.00000 25.000000 75.000000 51.181980 27.865280 54.203260
112 75.000000 0.0000000 25.000000 21.775280 11.266850 5.3178340
113 75.000000 25.000000 50.000000 26.688500 15.873960 23.146250
114 100.00000 25.000000 50.000000 45.608210 25.688040 23.967910
115 25.000000 25.000000 50.000000 7.6327020 5.9613620 22.495580
116 25.000000 50.000000 50.000000 13.921960 18.409060 24.550180
117 75.000000 50.000000 50.000000 33.037070 28.330350 25.284780
118 100.00000 50.000000 50.000000 51.917270 38.129750 26.107010
119 100.00000 50.000000 75.000000 57.522240 40.375780 56.343450
120 25.000000 75.000000 50.000000 25.130490 40.488920 28.276480
121 50.000000 75.000000 50.000000 32.096040 44.097790 28.713580
122 75.000000 75.000000 50.000000 44.263350 50.410750 29.095810
123 100.00000 75.000000 50.000000 63.119640 60.229870 29.919160
124 100.00000 75.000000 75.000000 68.685100 62.461220 60.156170
125 25.000000 100.00000 50.000000 42.425770 74.766800 34.396230
126 50.000000 100.00000 50.000000 49.571120 78.448500 34.745720
127 75.000000 100.00000 50.000000 61.698910 84.746780 35.128530
128 100.00000 100.00000 50.000000 80.333750 94.512240 35.955870
129 25.000000 0.0000000 75.000000 11.486290 4.7685900 52.171370
130 50.000000 0.0000000 75.000000 18.335900 8.3250300 52.439610
131 75.000000 0.0000000 75.000000 30.541810 14.668590 52.906860
132 75.000000 25.000000 75.000000 32.280020 18.051760 53.466330
133 75.000000 50.000000 100.00000 47.334770 34.072880 101.97930
134 25.000000 25.000000 75.000000 13.204420 8.1451440 52.731160
135 25.000000 50.000000 100.00000 28.221810 24.117750 101.32880
136 0.0000000 25.000000 50.000000 5.7260390 4.9837880 22.090310
137 0.0000000 25.000000 75.000000 11.330540 7.1587870 52.409990
138 0.0000000 50.000000 75.000000 17.642740 19.658860 54.550590
139 25.000000 50.000000 75.000000 19.529080 20.621250 54.870800
140 50.000000 50.000000 75.000000 26.441400 24.228480 55.053720
141 75.000000 50.000000 75.000000 38.586930 30.527320 55.521250
142 74.510000 74.510000 74.510000 49.369820 52.078960 58.818010
143 0.0000000 75.000000 75.000000 28.833520 41.738170 58.192170
144 25.000000 75.000000 75.000000 30.735460 42.734950 58.512920
145 50.000000 75.000000 75.000000 37.738380 46.392340 58.865260
146 0.0000000 75.000000 50.000000 23.222390 39.512400 28.041580
147 0.0000000 100.00000 50.000000 40.499920 73.789730 34.076590
148 0.0000000 100.00000 75.000000 45.989260 75.896570 64.056670
149 25.000000 100.00000 75.000000 48.043070 76.972300 64.460970
150 50.000000 100.00000 75.000000 55.111550 80.590810 64.895800
151 75.000000 100.00000 75.000000 67.351700 86.953380 65.362730
152 75.000000 100.00000 100.00000 75.794670 90.232270 111.56560
153 25.000000 0.0000000 100.00000 20.127400 8.0916910 98.796310
154 50.000000 0.0000000 100.00000 27.042460 11.681810 99.234140
155 0.0000000 0.0000000 75.000000 9.6221420 3.8123800 51.850780
156 0.0000000 0.0000000 100.00000 18.265100 7.1261400 98.645720
157 0.0000000 25.000000 100.00000 20.037770 10.567210 99.376210
158 25.000000 25.000000 100.00000 21.921320 11.540650 99.526480
159 50.000000 25.000000 100.00000 28.743040 15.097730 99.539970
160 75.000000 25.000000 100.00000 40.943690 21.445630 100.00750
161 100.00000 25.000000 100.00000 59.774680 31.256980 100.40550
162 100.00000 50.000000 100.00000 66.027610 43.792230 102.54850
163 50.000000 25.000000 75.000000 20.152220 11.753470 53.083530
164 50.000000 50.000000 100.00000 35.200810 27.794850 101.68230
165 0.0000000 50.000000 50.000000 12.053370 17.447220 24.314700
166 0.0000000 50.000000 100.00000 26.415870 23.212190 101.43390
167 0.0000000 75.000000 100.00000 37.582750 45.311210 105.07660
168 25.000000 75.000000 100.00000 39.422030 46.251710 105.05680
169 50.000000 75.000000 100.00000 46.415510 49.854450 105.32280
170 75.000000 75.000000 100.00000 58.580670 56.201250 105.62080
171 100.00000 75.000000 100.00000 77.289110 65.954990 106.19060
172 0.0000000 100.00000 100.00000 54.674960 79.223290 110.85090
173 25.000000 100.00000 100.00000 56.647610 80.303530 111.17220
174 50.000000 100.00000 100.00000 63.635670 83.865200 111.18170
175 100.00000 100.00000 100.00000 94.706340 100.01920 112.72730
END_DATA
CAL    

DESCRIPTOR "Argyll Device Calibration State"
ORIGINATOR "Argyll dispread"
CREATED "Thu Jul 22 15:56:35 2021"
DEVICE_CLASS "DISPLAY"
COLOR_REP "RGB"

BEGIN_ARGYLL_DISPCAL_ARGS
-v2 -ql -t -g2.2 -f1.0 -k0 -A4.0 -d2 -c1 -yn -P0.181943171402,0.500941619586,1.0
END_ARGYLL_DISPCAL_ARGS


NUMBER_OF_FIELDS 4
BEGIN_DATA_FORMAT
RGB_I RGB_R RGB_G RGB_B
END_DATA_FORMAT

NUMBER_OF_SETS 256
BEGIN_DATA
0.00000000 0.00000000 0.00000000 0.00000000
0.00392157 0.00171819 0.00165609 0.00159917
0.00784314 0.00349205 0.00336904 0.00325393
0.01176470 0.00532435 0.00514185 0.00496725
0.01568630 0.00721801 0.00697769 0.00674229
0.01960780 0.00917618 0.00887999 0.00858244
0.02352940 0.01120220 0.01085240 0.01049140
0.02745100 0.01329970 0.01289900 0.01247300
0.03137250 0.01547240 0.01502390 0.01453150
0.03529410 0.01772460 0.01723170 0.01667150
0.03921570 0.02006060 0.01952740 0.01889790
0.04313730 0.02248520 0.02191630 0.02121610
0.04705880 0.02500370 0.02440430 0.02363190
0.05098040 0.02762140 0.02699760 0.02615150
0.05490200 0.03034440 0.02970300 0.02878180
0.05882350 0.03317920 0.03252810 0.03153030
0.06274510 0.03613140 0.03547960 0.03440480
0.06666670 0.03920080 0.03855690 0.03740760
0.07058820 0.04238310 0.04175480 0.04053260
0.07450980 0.04567350 0.04506690 0.04377260
0.07843140 0.04906640 0.04848580 0.04712070
0.08235290 0.05255470 0.05200180 0.05056900
0.08627450 0.05612980 0.05560390 0.05410770
0.09019610 0.05978250 0.05928020 0.05772520
0.09411760 0.06350530 0.06302040 0.06141030
0.09803920 0.06729290 0.06681620 0.06515450
0.10196100 0.07114480 0.07066410 0.06895160
0.10588200 0.07506600 0.07456880 0.07280460
0.10980400 0.07906430 0.07853670 0.07672200
0.11372500 0.08314420 0.08257130 0.08071310
0.11764700 0.08731180 0.08667760 0.08478280
0.12156900 0.09156740 0.09085380 0.08893240
0.12549000 0.09591130 0.09510550 0.09316700
0.12941200 0.10034100 0.09942580 0.09747920
0.13333300 0.10485700 0.10382300 0.10187600
0.13725500 0.10944300 0.10827400 0.10634400
0.14117600 0.11410100 0.11277900 0.11086900
0.14509800 0.11880300 0.11732400 0.11544700
0.14902000 0.12353700 0.12188300 0.12004300
0.15294100 0.12829600 0.12645300 0.12464800
0.15686300 0.13305200 0.13102500 0.12925500
0.16078400 0.13778100 0.13556200 0.13383500
0.16470600 0.14248300 0.14007000 0.13837500
0.16862700 0.14716200 0.14455000 0.14288100
0.17254900 0.15180800 0.14900900 0.14736400
0.17647100 0.15640100 0.15343200 0.15181800
0.18039200 0.16096000 0.15782100 0.15623000
0.18431400 0.16548100 0.16218800 0.16062000
0.18823500 0.16997400 0.16653100 0.16498600
0.19215700 0.17444300 0.17086400 0.16933700
0.19607800 0.17886300 0.17517600 0.17367900
0.20000000 0.18322300 0.17944700 0.17798400
0.20392200 0.18755200 0.18366900 0.18223800
0.20784300 0.19184800 0.18787200 0.18646200
0.21176500 0.19610900 0.19204700 0.19065800
0.21568600 0.20033600 0.19619500 0.19482100
0.21960800 0.20455700 0.20031500 0.19894700
0.22352900 0.20877000 0.20443500 0.20305800
0.22745100 0.21295800 0.20855000 0.20716600
0.23137300 0.21712900 0.21265100 0.21125600
0.23529400 0.22128000 0.21674500 0.21533200
0.23921600 0.22544000 0.22082900 0.21939800
0.24313700 0.22963100 0.22492400 0.22345900
0.24705900 0.23384500 0.22905900 0.22755600
0.25098000 0.23807700 0.23322400 0.23168900
0.25490200 0.24232800 0.23741000 0.23584900
0.25882400 0.24659700 0.24161800 0.24003300
0.26274500 0.25089900 0.24584300 0.24424000
0.26666700 0.25524200 0.25009200 0.24846800
0.27058800 0.25959900 0.25438100 0.25274000
0.27451000 0.26395800 0.25868100 0.25703500
0.27843100 0.26831500 0.26297900 0.26133200
0.28235300 0.27267000 0.26727100 0.26562400
0.28627500 0.27701400 0.27155800 0.26990600
0.29019600 0.28132900 0.27583900 0.27418200
0.29411800 0.28560700 0.28009900 0.27843900
0.29803900 0.28988300 0.28432300 0.28266100
0.30196100 0.29417300 0.28853100 0.28685000
0.30588200 0.29846600 0.29275700 0.29105000
0.30980400 0.30276200 0.29699300 0.29526600
0.31372500 0.30704000 0.30123300 0.29948500
0.31764700 0.31129600 0.30546800 0.30371000
0.32156900 0.31553900 0.30967800 0.30791600
0.32549000 0.31976800 0.31387900 0.31210700
0.32941200 0.32398500 0.31806500 0.31628800
0.33333300 0.32818700 0.32224000 0.32045700
0.33725500 0.33237700 0.32640000 0.32461500
0.34117600 0.33658200 0.33054300 0.32875600
0.34509800 0.34079400 0.33468200 0.33288500
0.34902000 0.34499300 0.33884000 0.33703200
0.35294100 0.34917600 0.34299000 0.34118300
0.35686300 0.35334400 0.34712600 0.34532100
0.36078400 0.35749500 0.35125200 0.34944800
0.36470600 0.36163300 0.35536300 0.35356300
0.36862700 0.36575900 0.35946600 0.35766600
0.37254900 0.36989900 0.36355500 0.36176000
0.37647100 0.37404600 0.36764900 0.36584700
0.38039200 0.37819800 0.37175800 0.36995200
0.38431400 0.38232600 0.37587500 0.37406700
0.38823500 0.38642900 0.37999000 0.37819100
0.39215700 0.39050600 0.38407900 0.38229600
0.39607800 0.39454200 0.38814900 0.38638000
0.40000000 0.39852400 0.39218900 0.39044000
0.40392200 0.40248900 0.39617800 0.39445900
0.40784300 0.40648500 0.40011400 0.39842000
0.41176500 0.41051100 0.40405800 0.40235800
0.41568600 0.41455400 0.40803700 0.40633000
0.41960800 0.41860500 0.41204400 0.41033900
0.42352900 0.42266100 0.41606100 0.41436600
0.42745100 0.42672400 0.42008400 0.41840300
0.43137300 0.43079200 0.42411100 0.42244600
0.43529400 0.43484900 0.42814500 0.42649900
0.43921600 0.43888800 0.43218200 0.43055900
0.44313700 0.44290500 0.43621000 0.43461600
0.44705900 0.44690900 0.44022500 0.43866100
0.45098000 0.45093400 0.44421900 0.44268800
0.45490200 0.45496900 0.44821700 0.44670400
0.45882400 0.45900100 0.45223900 0.45074600
0.46274500 0.46301700 0.45626700 0.45480200
0.46666700 0.46702900 0.46028800 0.45885800
0.47058800 0.47103500 0.46429500 0.46289700
0.47451000 0.47503700 0.46830100 0.46693400
0.47843100 0.47903400 0.47230300 0.47096600
0.48235300 0.48302600 0.47630400 0.47499700
0.48627500 0.48701200 0.48030100 0.47902400
0.49019600 0.49099500 0.48429600 0.48304700
0.49411800 0.49497300 0.48828900 0.48706800
0.49803900 0.49895000 0.49228200 0.49108800
0.50196100 0.50295500 0.49627500 0.49510700
0.50588200 0.50696900 0.50027600 0.49912900
0.50980400 0.51097900 0.50430800 0.50318400
0.51372500 0.51498400 0.50834100 0.50724700
0.51764700 0.51898400 0.51237100 0.51130600
0.52156900 0.52297800 0.51639900 0.51536100
0.52549000 0.52696600 0.52042100 0.51941100
0.52941200 0.53095000 0.52443800 0.52345500
0.53333300 0.53492800 0.52844800 0.52749000
0.53725500 0.53890400 0.53245400 0.53152200
0.54117600 0.54287200 0.53645700 0.53554700
0.54509800 0.54682600 0.54045900 0.53957200
0.54902000 0.55079300 0.54445000 0.54358800
0.55294100 0.55477300 0.54843600 0.54759200
0.55686300 0.55876000 0.55244200 0.55161400
0.56078400 0.56273600 0.55646200 0.55565000
0.56470600 0.56670200 0.56048200 0.55969200
0.56862700 0.57064400 0.56449600 0.56372300
0.57254900 0.57458500 0.56849400 0.56774100
0.57647100 0.57855200 0.57246700 0.57173100
0.58039200 0.58253400 0.57645700 0.57573200
0.58431400 0.58651700 0.58047000 0.57976000
0.58823500 0.59049500 0.58448900 0.58379800
0.59215700 0.59446800 0.58850100 0.58783300
0.59607800 0.59843700 0.59250100 0.59185500
0.60000000 0.60241200 0.59649200 0.59586700
0.60392200 0.60639600 0.60047500 0.59987300
0.60784300 0.61038400 0.60446800 0.60388900
0.61176500 0.61437400 0.60846400 0.60791200
0.61568600 0.61836500 0.61246000 0.61193600
0.61960800 0.62236900 0.61645100 0.61595400
0.62352900 0.62638300 0.62045300 0.61998200
0.62745100 0.63038400 0.62446700 0.62402500
0.63137300 0.63435800 0.62848400 0.62807600
0.63529400 0.63830900 0.63248200 0.63211100
0.63921600 0.64222400 0.63646000 0.63612400
0.64313700 0.64610900 0.64041100 0.64011100
0.64705900 0.64996100 0.64433100 0.64406300
0.65098000 0.65376800 0.64822200 0.64798700
0.65490200 0.65751400 0.65207400 0.65187300
0.65882400 0.66119100 0.65586900 0.65570200
0.66274500 0.66480100 0.65958900 0.65945500
0.66666700 0.66837100 0.66323400 0.66312800
0.67058800 0.67198800 0.66680800 0.66672900
0.67451000 0.67566500 0.67039600 0.67034100
0.67843100 0.67940200 0.67405000 0.67402300
0.68235300 0.68319300 0.67777300 0.67777600
0.68627500 0.68702300 0.68156200 0.68159800
0.69019600 0.69087800 0.68540100 0.68547000
0.69411800 0.69475700 0.68927000 0.68937300
0.69803900 0.69866100 0.69316300 0.69330000
0.70196100 0.70259300 0.69707900 0.69725400
0.70588200 0.70653600 0.70102200 0.70123900
0.70980400 0.71048500 0.70498200 0.70524100
0.71372500 0.71443700 0.70894600 0.70924600
0.71764700 0.71838600 0.71291400 0.71325300
0.72156900 0.72231500 0.71688000 0.71725800
0.72549000 0.72622600 0.72083500 0.72124900
0.72941200 0.73011900 0.72477900 0.72522600
0.73333300 0.73401600 0.72870400 0.72918200
0.73725500 0.73791100 0.73263400 0.73314400
0.74117600 0.74181100 0.73656900 0.73710500
0.74509800 0.74571700 0.74051100 0.74107100
0.74902000 0.74963200 0.74446400 0.74504700
0.75294100 0.75355900 0.74843200 0.74903700
0.75686300 0.75748700 0.75241500 0.75304200
0.76078400 0.76141300 0.75640300 0.75704700
0.76470600 0.76534000 0.76039300 0.76105200
0.76862700 0.76926500 0.76438700 0.76505900
0.77254900 0.77319400 0.76838700 0.76906700
0.77647100 0.77713000 0.77239000 0.77307900
0.78039200 0.78106400 0.77640900 0.77710400
0.78431400 0.78497800 0.78043300 0.78112800
0.78823500 0.78887800 0.78444200 0.78513300
0.79215700 0.79276100 0.78844300 0.78912600
0.79607800 0.79660900 0.79243000 0.79309900
0.80000000 0.80042200 0.79638300 0.79703300
0.80392200 0.80425500 0.80029700 0.80092600
0.80784300 0.80813200 0.80423100 0.80484900
0.81176500 0.81204600 0.80821800 0.80882300
0.81568600 0.81598400 0.81224800 0.81283600
0.81960800 0.81994600 0.81630400 0.81687300
0.82352900 0.82391900 0.82038400 0.82093300
0.82745100 0.82790000 0.82447500 0.82500000
0.83137300 0.83188700 0.82857300 0.82907200
0.83529400 0.83587900 0.83267900 0.83315200
0.83921600 0.83986400 0.83678900 0.83723300
0.84313700 0.84383500 0.84089100 0.84130400
0.84705900 0.84779900 0.84498100 0.84536200
0.85098000 0.85175300 0.84906400 0.84941200
0.85490200 0.85568300 0.85313300 0.85344500
0.85882400 0.85959600 0.85716800 0.85744400
0.86274500 0.86352900 0.86120000 0.86144300
0.86666700 0.86747600 0.86525400 0.86546400
0.87058800 0.87143100 0.86931300 0.86949200
0.87451000 0.87540000 0.87337700 0.87352700
0.87843100 0.87936600 0.87744900 0.87757100
0.88235300 0.88331500 0.88150300 0.88159800
0.88627500 0.88724400 0.88553900 0.88560900
0.89019600 0.89115400 0.88954600 0.88959200
0.89411800 0.89508200 0.89355700 0.89358100
0.89803900 0.89901900 0.89758100 0.89758600
0.90196100 0.90295700 0.90160700 0.90159600
0.90588200 0.90688000 0.90562000 0.90559400
0.90980400 0.91078200 0.90960500 0.90956600
0.91372500 0.91468800 0.91358500 0.91353500
0.91764700 0.91859700 0.91756800 0.91750800
0.92156900 0.92249800 0.92154200 0.92147500
0.92549000 0.92639100 0.92550000 0.92542700
0.92941200 0.93028500 0.92945800 0.92938000
0.93333300 0.93417400 0.93340800 0.93332700
0.93725500 0.93806200 0.93735400 0.93727000
0.94117600 0.94194700 0.94129700 0.94121200
0.94509800 0.94583400 0.94523900 0.94515300
0.94902000 0.94971700 0.94917700 0.94909100
0.95294100 0.95359900 0.95311400 0.95302900
0.95686300 0.95748000 0.95704800 0.95696500
0.96078400 0.96136000 0.96098000 0.96090000
0.96470600 0.96523900 0.96490900 0.96483300
0.96862700 0.96911500 0.96883500 0.96876300
0.97254900 0.97298900 0.97275400 0.97268800
0.97647100 0.97685800 0.97666600 0.97660700
0.98039200 0.98072400 0.98057200 0.98052000
0.98431400 0.98458700 0.98447100 0.98442700
0.98823500 0.98844500 0.98836300 0.98832900
0.99215700 0.99230100 0.99224900 0.99222500
0.99607800 0.99615200 0.99612800 0.99611500
1.00000000 1.00000000 1.00000000 1.00000000
END_DATA
