dotfiles/displaycal/.local/share/DisplayCAL/storage/U2721DE #1 2021-07-22 15-21 2.2 F-S XYZLUT+MTX/U2721DE #1 2021-07-22 15-21 2.2 F-S XYZLUT+MTX.cal
CAL    

DESCRIPTOR "Argyll Device Calibration Curves"
ORIGINATOR "Argyll dispcal"
CREATED "Thu Jul 22 15:33:46 2021"
DEVICE_CLASS "DISPLAY"
COLOR_REP "RGB"
VIDEO_LUT_CALIBRATION_POSSIBLE "YES"
TV_OUTPUT_ENCODING "NO"
DEVICE_TYPE "n"
NATIVE_TARGET_WHITE ""
TARGET_WHITE_XYZ "228.655659 239.831382 268.970124"
TARGET_GAMMA "2.2"
DEGREE_OF_BLACK_OUTPUT_OFFSET "1.0"
BLACK_POINT_CORRECTION "0.0"
BLACK_NEUTRAL_BLEND_RATE "4.0"
BLACK_POINT_HACK "YES"
QUALITY "low"

BEGIN_ARGYLL_DISPCAL_ARGS
-v2 -d1 -c1 -yn -P0.438588450962,0.901129943503,1.0 -ql -t -g2.2 -f1.0 -k0.0 -A4.0 -b
END_ARGYLL_DISPCAL_ARGS


NUMBER_OF_FIELDS 4
BEGIN_DATA_FORMAT
RGB_I RGB_R RGB_G RGB_B
END_DATA_FORMAT

NUMBER_OF_SETS 256
BEGIN_DATA
0.00000000 0.00000000 0.00000000 0.00000000
0.00392157 0.00327976 0.00331385 0.00326586
0.00784314 0.00661370 0.00667942 0.00659138
0.01176470 0.01000320 0.01009790 0.00997819
0.01568630 0.01344960 0.01357070 0.01342800
0.01960780 0.01695450 0.01709890 0.01694260
0.02352940 0.02051920 0.02068400 0.02052390
0.02745100 0.02414530 0.02432730 0.02417370
0.03137250 0.02783450 0.02803020 0.02789400
0.03529410 0.03158840 0.03179430 0.03168690
0.03921570 0.03540850 0.03562060 0.03555400
0.04313730 0.03929450 0.03950630 0.03949330
0.04705880 0.04324720 0.04344690 0.04350100
0.05098040 0.04726610 0.04743750 0.04757470
0.05490200 0.05133490 0.05146130 0.05170120
0.05882350 0.05542720 0.05550240 0.05585810
0.06274510 0.05953000 0.05955280 0.06003430
0.06666670 0.06362870 0.06359910 0.06421770
0.07058820 0.06770980 0.06763190 0.06839530
0.07450980 0.07176840 0.07164720 0.07256370
0.07843140 0.07580060 0.07564420 0.07671710
0.08235290 0.07980390 0.07962520 0.08085650
0.08627450 0.08378250 0.08359030 0.08498670
0.09019610 0.08773910 0.08754120 0.08910800
0.09411760 0.09167870 0.09148080 0.09322290
0.09803920 0.09561220 0.09541620 0.09733850
0.10196100 0.09955740 0.09935790 0.10146900
0.10588200 0.10352800 0.10331600 0.10562200
0.10980400 0.10753200 0.10729700 0.10979900
0.11372500 0.11157400 0.11130400 0.11400600
0.11764700 0.11567200 0.11533900 0.11825600
0.12156900 0.11983900 0.11940600 0.12255800
0.12549000 0.12408800 0.12351400 0.12691400
0.12941200 0.12842300 0.12766600 0.13132900
0.13333300 0.13284900 0.13186500 0.13580200
0.13725500 0.13736700 0.13611200 0.14033900
0.14117600 0.14197700 0.14040900 0.14493700
0.14509800 0.14666200 0.14474600 0.14957900
0.14902000 0.15140100 0.14910000 0.15425900
0.15294100 0.15618000 0.15346700 0.15896000
0.15686300 0.16098100 0.15784400 0.16368000
0.16078400 0.16579700 0.16223400 0.16841600
0.16470600 0.17061500 0.16663300 0.17314900
0.16862700 0.17540700 0.17103800 0.17786800
0.17254900 0.18016900 0.17544200 0.18256400
0.17647100 0.18489400 0.17984300 0.18723900
0.18039200 0.18957700 0.18423200 0.19188400
0.18431400 0.19421200 0.18861800 0.19650300
0.18823500 0.19881600 0.19300000 0.20110100
0.19215700 0.20339800 0.19738500 0.20569200
0.19607800 0.20796700 0.20177300 0.21027500
0.20000000 0.21251800 0.20615500 0.21485200
0.20392200 0.21705300 0.21052200 0.21941700
0.20784300 0.22156200 0.21487300 0.22396000
0.21176500 0.22604400 0.21920800 0.22848500
0.21568600 0.23049400 0.22352800 0.23298800
0.21960800 0.23490800 0.22784100 0.23747200
0.22352900 0.23929300 0.23214100 0.24193700
0.22745100 0.24364200 0.23642300 0.24637400
0.23137300 0.24794700 0.24069100 0.25078200
0.23529400 0.25221100 0.24493800 0.25516400
0.23921600 0.25644200 0.24916300 0.25951700
0.24313700 0.26064000 0.25336600 0.26383400
0.24705900 0.26480300 0.25754400 0.26811500
0.25098000 0.26892900 0.26169800 0.27236200
0.25490200 0.27302200 0.26582600 0.27658200
0.25882400 0.27709400 0.26993000 0.28077700
0.26274500 0.28115100 0.27401700 0.28494200
0.26666700 0.28518400 0.27809100 0.28909000
0.27058800 0.28921500 0.28215000 0.29325000
0.27451000 0.29326900 0.28618900 0.29741900
0.27843100 0.29734500 0.29023400 0.30159600
0.28235300 0.30143800 0.29429900 0.30578700
0.28627500 0.30555900 0.29837500 0.30999100
0.29019600 0.30970500 0.30246000 0.31420100
0.29411800 0.31386700 0.30656200 0.31840700
0.29803900 0.31803100 0.31068100 0.32260600
0.30196100 0.32219800 0.31482000 0.32679700
0.30588200 0.32636200 0.31897700 0.33098100
0.30980400 0.33052600 0.32314300 0.33516300
0.31372500 0.33469300 0.32731100 0.33934700
0.31764700 0.33886100 0.33148200 0.34352600
0.32156900 0.34302400 0.33565300 0.34770200
0.32549000 0.34718200 0.33980900 0.35187600
0.32941200 0.35134000 0.34394700 0.35604000
0.33333300 0.35549100 0.34806600 0.36019500
0.33725500 0.35963700 0.35216500 0.36433100
0.34117600 0.36377200 0.35624200 0.36844900
0.34509800 0.36789600 0.36030600 0.37254800
0.34902000 0.37200300 0.36435800 0.37663200
0.35294100 0.37609500 0.36840800 0.38070100
0.35686300 0.38017400 0.37245700 0.38476300
0.36078400 0.38424800 0.37650600 0.38882700
0.36470600 0.38833100 0.38055700 0.39289200
0.36862700 0.39242300 0.38461600 0.39695000
0.37254900 0.39651300 0.38869200 0.40100700
0.37647100 0.40060600 0.39278000 0.40509700
0.38039200 0.40473000 0.39687200 0.40922600
0.38431400 0.40889400 0.40096700 0.41338700
0.38823500 0.41309000 0.40508600 0.41757000
0.39215700 0.41730400 0.40923400 0.42177300
0.39607800 0.42153400 0.41340300 0.42600000
0.40000000 0.42578800 0.41757400 0.43024900
0.40392200 0.43006800 0.42174600 0.43450600
0.40784300 0.43435200 0.42592300 0.43876500
0.41176500 0.43863100 0.43010100 0.44301600
0.41568600 0.44289900 0.43426200 0.44725500
0.41960800 0.44715000 0.43839700 0.45148200
0.42352900 0.45138500 0.44250400 0.45568300
0.42745100 0.45558900 0.44658100 0.45985800
0.43137300 0.45977200 0.45063800 0.46400800
0.43529400 0.46393500 0.45467100 0.46813000
0.43921600 0.46807100 0.45868300 0.47222400
0.44313700 0.47218000 0.46267500 0.47629600
0.44705900 0.47627000 0.46665000 0.48035400
0.45098000 0.48035100 0.47060600 0.48440300
0.45490200 0.48442700 0.47454700 0.48844200
0.45882400 0.48849500 0.47848000 0.49247000
0.46274500 0.49255600 0.48241300 0.49648800
0.46666700 0.49660800 0.48634200 0.50049700
0.47058800 0.50065400 0.49026900 0.50449900
0.47451000 0.50469300 0.49419200 0.50849000
0.47843100 0.50871700 0.49811100 0.51246700
0.48235300 0.51272600 0.50202800 0.51643100
0.48627500 0.51671900 0.50594000 0.52038000
0.49019600 0.52069700 0.50984800 0.52431800
0.49411800 0.52466300 0.51375200 0.52823600
0.49803900 0.52860900 0.51765100 0.53213100
0.50196100 0.53252900 0.52154700 0.53599700
0.50588200 0.53641700 0.52544100 0.53984000
0.50980400 0.54027700 0.52932600 0.54366300
0.51372500 0.54411400 0.53319600 0.54746800
0.51764700 0.54792700 0.53704800 0.55125600
0.52156900 0.55171700 0.54088600 0.55502000
0.52549000 0.55547200 0.54470600 0.55876200
0.52941200 0.55919800 0.54851200 0.56248900
0.53333300 0.56290600 0.55231200 0.56620100
0.53725500 0.56659000 0.55609900 0.56988700
0.54117600 0.57024200 0.55987800 0.57355400
0.54509800 0.57387200 0.56364900 0.57722800
0.54902000 0.57750700 0.56740900 0.58091100
0.55294100 0.58114900 0.57115200 0.58460000
0.55686300 0.58479700 0.57489400 0.58829300
0.56078400 0.58845100 0.57865200 0.59199400
0.56470600 0.59211900 0.58242400 0.59570400
0.56862700 0.59579900 0.58620800 0.59942400
0.57254900 0.59949400 0.59000800 0.60315800
0.57647100 0.60320400 0.59383100 0.60690900
0.58039200 0.60693300 0.59767200 0.61067900
0.58431400 0.61068200 0.60152800 0.61446500
0.58823500 0.61445100 0.60538900 0.61826300
0.59215700 0.61823200 0.60925300 0.62206600
0.59607800 0.62201300 0.61311900 0.62586500
0.60000000 0.62578100 0.61698100 0.62966300
0.60392200 0.62954000 0.62084100 0.63345900
0.60784300 0.63328900 0.62469000 0.63725200
0.61176500 0.63702900 0.62852600 0.64104500
0.61568600 0.64077000 0.63235200 0.64483900
0.61960800 0.64451500 0.63616500 0.64862700
0.62352900 0.64825700 0.63996900 0.65239700
0.62745100 0.65198500 0.64376700 0.65613600
0.63137300 0.65568300 0.64756200 0.65984100
0.63529400 0.65935000 0.65134400 0.66351200
0.63921600 0.66298700 0.65510400 0.66714900
0.64313700 0.66659300 0.65883700 0.67078400
0.64705900 0.67019100 0.66254200 0.67443000
0.65098000 0.67379900 0.66622000 0.67808800
0.65490200 0.67742000 0.66988600 0.68175800
0.65882400 0.68105300 0.67356800 0.68543600
0.66274500 0.68469600 0.67726800 0.68911700
0.66666700 0.68834200 0.68098500 0.69279200
0.67058800 0.69198100 0.68471300 0.69646400
0.67451000 0.69561300 0.68844300 0.70013400
0.67843100 0.69924000 0.69216900 0.70380700
0.68235300 0.70286900 0.69589100 0.70748500
0.68627500 0.70650500 0.69960800 0.71117100
0.69019600 0.71015200 0.70332600 0.71486600
0.69411800 0.71381400 0.70705000 0.71856300
0.69803900 0.71748500 0.71078700 0.72225300
0.70196100 0.72114800 0.71453800 0.72593300
0.70588200 0.72479900 0.71828900 0.72959900
0.70980400 0.72843100 0.72203200 0.73325400
0.71372500 0.73204500 0.72576200 0.73689800
0.71764700 0.73564300 0.72947800 0.74053100
0.72156900 0.73922500 0.73319000 0.74415600
0.72549000 0.74279500 0.73689600 0.74777500
0.72941200 0.74635200 0.74059400 0.75138800
0.73333300 0.74989900 0.74428700 0.75499300
0.73725500 0.75343600 0.74797400 0.75859100
0.74117600 0.75696900 0.75165500 0.76218000
0.74509800 0.76049600 0.75533000 0.76577000
0.74902000 0.76402100 0.75899600 0.76935700
0.75294100 0.76755200 0.76265400 0.77293700
0.75686300 0.77108100 0.76631100 0.77650500
0.76078400 0.77460200 0.76996100 0.78006200
0.76470600 0.77810700 0.77360300 0.78361700
0.76862700 0.78160600 0.77723200 0.78717100
0.77254900 0.78510600 0.78084800 0.79071600
0.77647100 0.78860700 0.78445300 0.79424900
0.78039200 0.79210200 0.78805200 0.79776800
0.78431400 0.79558700 0.79164200 0.80127400
0.78823500 0.79906400 0.79522200 0.80479400
0.79215700 0.80253900 0.79879100 0.80833300
0.79607800 0.80603500 0.80235100 0.81189000
0.80000000 0.80955300 0.80591800 0.81545200
0.80392200 0.81308600 0.80949600 0.81901500
0.80784300 0.81662200 0.81307700 0.82258400
0.81176500 0.82016100 0.81665300 0.82616300
0.81568600 0.82371400 0.82022400 0.82975600
0.81960800 0.82728800 0.82379500 0.83336600
0.82352900 0.83088600 0.82737100 0.83698000
0.82745100 0.83450600 0.83095400 0.84059200
0.83137300 0.83813000 0.83454200 0.84420000
0.83529400 0.84175200 0.83813200 0.84780700
0.83921600 0.84537300 0.84172000 0.85141300
0.84313700 0.84899800 0.84530800 0.85500900
0.84705900 0.85262500 0.84889700 0.85859300
0.85098000 0.85624100 0.85248600 0.86219000
0.85490200 0.85986000 0.85606700 0.86580100
0.85882400 0.86350300 0.85964900 0.86942300
0.86274500 0.86716900 0.86325200 0.87305500
0.86666700 0.87085400 0.86687600 0.87669600
0.87058800 0.87455900 0.87051400 0.88035100
0.87451000 0.87828500 0.87416500 0.88401900
0.87843100 0.88203700 0.87783200 0.88769500
0.88235300 0.88581000 0.88151500 0.89137900
0.88627500 0.88960000 0.88521200 0.89507200
0.89019600 0.89340700 0.88891400 0.89877500
0.89411800 0.89723400 0.89262400 0.90248900
0.89803900 0.90107900 0.89634400 0.90621800
0.90196100 0.90494800 0.90007200 0.90995200
0.90588200 0.90883600 0.90381100 0.91369400
0.90980400 0.91273300 0.90756300 0.91744200
0.91372500 0.91664000 0.91132100 0.92119500
0.91764700 0.92055400 0.91509500 0.92495100
0.92156900 0.92447800 0.91888400 0.92870400
0.92549000 0.92840100 0.92269000 0.93244600
0.92941200 0.93231400 0.92651600 0.93617100
0.93333300 0.93621100 0.93036200 0.93988000
0.93725500 0.94009300 0.93423100 0.94356800
0.94117600 0.94395400 0.93812800 0.94723900
0.94509800 0.94779700 0.94205300 0.95088800
0.94902000 0.95162000 0.94601400 0.95451100
0.95294100 0.95541700 0.95000700 0.95811100
0.95686300 0.95919500 0.95403100 0.96168800
0.96078400 0.96295500 0.95809000 0.96524500
0.96470600 0.96670200 0.96217700 0.96878700
0.96862700 0.97044000 0.96629300 0.97231400
0.97254900 0.97416800 0.97043200 0.97582600
0.97647100 0.97788700 0.97459200 0.97932300
0.98039200 0.98159600 0.97877300 0.98280600
0.98431400 0.98529600 0.98297500 0.98627400
0.98823500 0.98898600 0.98719900 0.98972700
0.99215700 0.99266700 0.99144400 0.99316600
0.99607800 0.99633800 0.99571100 0.99659000
1.00000000 1.00000000 1.00000000 1.00000000
END_DATA
CAL    

DESCRIPTOR "Argyll Calibration options and model"
ORIGINATOR "Argyll dispcal"
CREATED "Thu Jul 22 15:33:46 202"

NUMBER_OF_FIELDS 3
BEGIN_DATA_FORMAT
R_P G_P B_P
END_DATA_FORMAT

NUMBER_OF_SETS 32
BEGIN_DATA
0.000152037 0.000486378 0.000889989
0.999848000 0.999514000 0.999110000
1.747368000 1.707177000 1.771397000
0.661961000 0.597634000 0.610673000
0.077914300 0.100750000 0.139826000
0.107058000 0.085530300 0.086013700
0.090376800 0.086157000 0.084960600
0.082540500 0.104057000 0.074339400
0.062908300 0.086354200 0.067176600
0.061542800 0.034242900 0.060310400
0.057784600 0.055938800 0.060611500
0.052806500 0.054257800 0.055635600
0.050083500 0.053175800 0.049532600
0.039826200 0.051216900 0.046697200
0.043933900 0.044847100 0.046288600
0.045610400 0.041442200 0.041663400
0.033565600 0.038257900 0.039094200
0.030854500 0.038474800 0.038165300
0.028424500 0.035346000 0.035115900
0.029561300 0.035708600 0.033735500
0.028456300 0.034284200 0.031397200
0.026004800 0.031662500 0.030310700
0.024591500 0.030032800 0.029884800
0.021570500 0.027477100 0.027254700
0.020949100 0.028053000 0.023466300
0.020140000 0.028290600 0.023402800
0.017697200 0.026932700 0.022628800
0.017298800 0.024270400 0.022048500
0.017985800 0.024762600 0.021237300
0.016038200 0.023947700 0.020457100
0.015198400 0.024077700 0.021953800
0.014814100 0.024725400 0.021002600
END_DATA
