displaycal/.local/share/DisplayCAL/storage/U2721DE #1 2021-07-22 15-21 2.2 F-S XYZLUT+MTX/U2721DE #1 2021-07-22 15-21 2.2 F-S XYZLUT+MTX.bpc.ti3
CTI3   

DESCRIPTOR "Argyll Calibration Target chart information 3"
ORIGINATOR "Argyll dispread"
CREATED "Thu Jul 22 15:33:46 2021"
DEVICE_CLASS "DISPLAY"
SINGLE_DIM_STEPS "5"
COMP_GREY_STEPS "52"
MULTI_DIM_STEPS "5"
COLOR_REP "RGB_XYZ"
TARGET_INSTRUMENT "X-Rite i1 DisplayPro, ColorMunki Display"
DISPLAY_TYPE_REFRESH "NO"
DISPLAY_TYPE_BASE_ID "1"
INSTRUMENT_TYPE_SPECTRAL "NO"
LUMINANCE_XYZ_CDM2 "228.836206 239.981959 269.516001"
NORMALIZED_TO_Y_100 "YES"
VIDEO_LUT_CALIBRATION_POSSIBLE "YES"

BEGIN_ARGYLL_COLPROF_ARGS
-v -qh -aX -bn -C "No copyright. Created with DisplayCAL 3.8.9.3 and ArgyllCMS 2.2.0" -M "DELL U2721DE" -A "Dell, Inc."
END_ARGYLL_COLPROF_ARGS

OBSERVER "1931_2"
USE_BLACK_POINT_COMPENSATION "NO"
BLACK_POINT_CORRECTION "0.0"
HIRES_B2A "YES"
HIRES_B2A_SIZE "-1"
SMOOTH_B2A "YES"
PATCH_SEQUENCE "OPTIMIZE_DISPLAY_RESPONSE_DELAY"

NUMBER_OF_FIELDS 7
BEGIN_DATA_FORMAT
SAMPLE_ID RGB_R RGB_G RGB_B XYZ_X XYZ_Y XYZ_Z
END_DATA_FORMAT

NUMBER_OF_SETS 175
BEGIN_DATA
1 100.00000 100.00000 100.00000 95.355590 100.00000 112.30680
2 100.00000 100.00000 75.000000 86.595744 96.016396 63.475937
3 100.00000 100.00000 100.00000 95.299080 100.00450 112.30830
4 100.00000 100.00000 100.00000 95.299080 100.00450 112.30830
5 0.0000000 0.0000000 0.0000000 0.0961773 0.1008617 0.1132745
6 25.000000 0.0000000 0.0000000 2.0145391 1.0305702 0.1376899
7 50.000000 0.0000000 0.0000000 9.2280380 4.5287788 0.0792294
8 75.000000 0.0000000 0.0000000 21.962235 10.709090 0.0001775
9 100.00000 0.0000000 0.0000000 42.477023 20.667674 0.0001775
10 100.00000 0.0000000 25.000000 43.380192 21.084284 4.6575212
11 100.00000 25.000000 25.000000 45.040919 24.422699 5.1341134
12 100.00000 50.000000 25.000000 51.038000 36.820279 6.7104740
13 100.00000 75.000000 25.000000 61.475833 58.413075 9.4529787
14 0.0000000 0.0000000 25.000000 0.9316233 0.4801531 4.8219840
15 25.000000 0.0000000 25.000000 2.8732349 1.4224496 4.8892381
16 75.000000 0.0000000 100.00000 40.605226 19.123467 103.19991
17 100.00000 0.0000000 100.00000 60.926094 29.004321 103.11881
18 1.9608000 1.9608000 1.9608000 0.1076333 0.1131177 0.1278148
19 3.9216000 3.9216000 3.9216000 0.1543145 0.1625856 0.1877550
20 5.8824000 5.8824000 5.8824000 0.2553662 0.2689094 0.3153477
21 7.8431000 7.8431000 7.8431000 0.4142752 0.4368382 0.5119434
22 9.8039000 9.8039000 9.8039000 0.6321514 0.6686978 0.7753038
23 11.765000 11.765000 11.765000 0.9171451 0.9711733 1.1232480
24 13.726000 13.726000 13.726000 1.2569102 1.3331868 1.5119267
25 15.686000 15.686000 15.686000 1.6688822 1.7622621 1.9998106
26 17.647000 17.647000 17.647000 2.1557926 2.2678193 2.5733352
27 19.608000 19.608000 19.608000 2.6854431 2.8201544 3.1942779
28 21.569000 21.569000 21.569000 3.2685530 3.4378265 3.8805311
29 23.529000 23.529000 23.529000 3.9196003 4.1135804 4.6586304
30 27.451000 27.451000 27.451000 5.4590940 5.7258419 6.4911890
31 29.412000 29.412000 29.412000 6.3155467 6.6347595 7.5244656
32 31.373000 31.373000 31.373000 7.3064221 7.6665518 8.6878648
33 33.333000 33.333000 33.333000 8.3610425 8.7858261 9.9290859
34 35.294000 35.294000 35.294000 9.5315996 9.9930842 11.254899
35 37.255000 37.255000 37.255000 10.713033 11.249119 12.669467
36 39.216000 39.216000 39.216000 12.027251 12.642087 14.285934
37 41.176000 41.176000 41.176000 13.511888 14.197145 15.946742
38 43.137000 43.137000 43.137000 15.044946 15.783902 17.772859
39 45.098000 45.098000 45.098000 16.619694 17.462600 19.600426
40 47.059000 47.059000 47.059000 18.275181 19.185977 21.578953
41 49.020000 49.020000 49.020000 19.979768 20.953084 23.557460
42 50.980000 50.980000 50.980000 21.755765 22.843241 25.613416
43 52.941000 52.941000 52.941000 23.612493 24.778098 27.820333
44 54.902000 54.902000 54.902000 25.467310 26.743105 29.952230
45 56.863000 56.863000 56.863000 27.416757 28.783452 32.235586
46 58.824000 58.824000 58.824000 29.518343 30.991548 34.747362
47 60.784000 60.784000 60.784000 31.696830 33.304655 37.260068
48 62.745000 62.745000 62.745000 33.985756 35.693581 39.999734
49 64.706000 64.706000 64.706000 36.272783 38.112667 42.664380
50 66.667000 66.667000 66.667000 38.698039 40.668853 45.556955
51 68.627000 68.627000 68.627000 41.275435 43.392799 48.677940
52 70.588000 70.588000 70.588000 43.921331 46.173045 51.722885
53 72.549000 72.549000 72.549000 46.640547 49.046200 54.920280
54 76.471000 76.471000 76.471000 52.429697 55.032561 61.919930
55 78.431000 78.431000 78.431000 55.541323 58.237696 65.723624
56 80.392000 80.392000 80.392000 58.820667 61.683490 69.529698
57 82.353000 82.353000 82.353000 62.175242 65.192025 73.563241
58 84.314000 84.314000 84.314000 65.638347 68.806549 77.748715
59 86.275000 86.275000 86.275000 69.329491 72.596913 82.085088
60 88.235000 88.235000 88.235000 72.847965 76.406427 85.970972
61 90.196000 90.196000 90.196000 76.272810 80.237511 89.783866
62 92.157000 92.157000 92.157000 79.908214 84.201695 93.898669
63 94.118000 94.118000 94.118000 83.441729 87.842369 98.083123
64 96.078000 96.078000 96.078000 87.257213 91.739193 102.64692
65 98.039000 98.039000 98.039000 91.453886 96.076536 107.66851
66 25.000000 25.000000 0.0000000 3.6104478 4.2826011 0.5438819
67 50.000000 25.000000 0.0000000 10.876143 7.8232866 0.4864257
68 75.000000 25.000000 0.0000000 23.636273 14.024615 0.3829269
69 100.00000 25.000000 0.0000000 44.130500 24.000979 0.2206821
70 100.00000 50.000000 0.0000000 50.073481 36.354680 1.7732497
71 50.000000 50.000000 0.0000000 16.826853 20.040995 2.0165983
72 75.000000 50.000000 0.0000000 29.626363 26.294876 1.9181455
73 25.000000 50.000000 0.0000000 9.5397796 16.444741 2.0693672
74 25.000000 75.000000 0.0000000 19.927788 37.945357 4.7716050
75 50.000000 75.000000 0.0000000 27.286407 41.567802 4.7232411
76 75.000000 75.000000 0.0000000 40.100157 47.852332 4.6268732
77 100.00000 75.000000 0.0000000 60.562415 57.942826 4.4884055
78 25.000000 100.00000 0.0000000 36.243693 71.690345 9.0493273
79 50.000000 100.00000 0.0000000 43.608021 75.264519 8.9913604
80 75.000000 100.00000 0.0000000 56.421891 81.549059 8.8956165
81 100.00000 100.00000 0.0000000 76.804849 91.534474 8.7447378
82 100.00000 100.00000 25.000000 77.769658 92.018303 13.786075
83 50.000000 0.0000000 25.000000 10.191664 4.9714261 4.8829991
84 50.000000 25.000000 50.000000 15.079126 9.7667146 23.224330
85 0.0000000 25.000000 0.0000000 1.6503906 3.3037657 0.5558193
86 0.0000000 25.000000 25.000000 2.5157564 3.7235730 5.3446750
87 25.490000 25.490000 25.490000 4.6730772 4.8960762 5.5769089
88 50.000000 25.000000 25.000000 11.862421 8.2998909 5.3496121
89 75.000000 25.000000 25.000000 24.660521 14.516034 5.2681032
90 0.0000000 50.000000 0.0000000 7.4675459 15.370813 2.0702642
91 0.0000000 50.000000 25.000000 8.4217614 15.866312 6.8923967
92 25.000000 50.000000 25.000000 10.463683 16.975750 6.9522236
93 50.000000 50.000000 25.000000 17.860282 20.611345 6.9165796
94 75.000000 50.000000 25.000000 30.665612 26.865415 6.8459138
95 0.0000000 75.000000 0.0000000 17.897832 36.836289 4.7689530
96 0.0000000 75.000000 25.000000 18.814950 37.367088 9.6193814
97 25.000000 75.000000 25.000000 20.881357 38.537717 9.6643293
98 50.000000 75.000000 25.000000 28.317615 42.186521 9.6494524
99 75.000000 75.000000 25.000000 41.123555 48.440611 9.5816875
100 0.0000000 100.00000 0.0000000 34.207496 70.629526 9.0537103
101 0.0000000 100.00000 25.000000 35.126005 71.081716 13.939845
102 25.000000 100.00000 25.000000 37.188631 72.173564 13.995785
103 50.000000 100.00000 25.000000 44.621180 75.822258 13.963165
104 75.000000 100.00000 25.000000 57.425290 82.076288 13.886705
105 0.0000000 0.0000000 50.000000 4.0553767 1.9000249 22.447633
106 25.000000 0.0000000 50.000000 6.0556161 2.8627134 22.652728
107 50.000000 0.0000000 50.000000 13.363449 6.4130068 22.644891
108 75.000000 0.0000000 50.000000 26.182149 12.627567 22.649301
109 100.00000 0.0000000 50.000000 46.632527 22.541472 22.641851
110 100.00000 0.0000000 75.000000 52.218938 25.076548 54.136482
111 100.00000 25.000000 75.000000 53.923605 28.494962 54.793821
112 75.000000 0.0000000 25.000000 22.960884 11.169919 4.8053280
113 75.000000 25.000000 50.000000 27.886496 15.990622 23.229270
114 100.00000 25.000000 50.000000 48.250974 25.933256 23.224710
115 25.000000 25.000000 50.000000 7.7012575 6.1820472 23.233050
116 25.000000 50.000000 50.000000 13.692118 18.480638 24.859248
117 75.000000 50.000000 50.000000 33.929686 28.401612 24.857228
118 100.00000 50.000000 50.000000 54.386884 38.449737 24.929097
119 100.00000 50.000000 75.000000 60.001096 41.046093 56.424708
120 25.000000 75.000000 50.000000 24.118462 40.042874 27.612753
121 50.000000 75.000000 50.000000 31.571870 43.692208 27.679803
122 75.000000 75.000000 50.000000 44.456150 50.021119 27.685683
123 100.00000 75.000000 50.000000 64.841028 60.073253 27.683573
124 100.00000 75.000000 75.000000 70.484949 62.700749 59.255164
125 25.000000 100.00000 50.000000 40.415686 73.666411 32.064876
126 50.000000 100.00000 50.000000 47.867195 77.345906 32.056906
127 75.000000 100.00000 50.000000 60.758874 83.626616 32.061316
128 100.00000 100.00000 50.000000 81.061353 93.591790 32.134756
129 25.000000 0.0000000 75.000000 11.645121 5.3999534 54.071560
130 50.000000 0.0000000 75.000000 19.002580 8.9752978 54.063092
131 75.000000 0.0000000 75.000000 31.831240 15.181643 54.067032
132 75.000000 25.000000 75.000000 33.557217 18.582498 54.723371
133 75.000000 50.000000 100.00000 48.559824 35.146292 105.63701
134 25.000000 25.000000 75.000000 13.326149 8.7403782 54.727361
135 25.000000 50.000000 100.00000 28.175945 25.191077 105.71761
136 0.0000000 25.000000 50.000000 5.6717397 5.1650908 23.103739
137 0.0000000 25.000000 75.000000 11.270122 7.7126178 54.522541
138 0.0000000 50.000000 75.000000 17.228173 19.984666 56.224708
139 25.000000 50.000000 75.000000 19.320229 21.107644 56.355338
140 50.000000 50.000000 75.000000 26.757838 24.756498 56.346888
141 75.000000 50.000000 75.000000 39.614308 31.024128 56.351798
142 74.510000 74.510000 74.510000 49.564832 52.070515 58.496085
143 0.0000000 75.000000 75.000000 27.640606 41.516262 58.977724
144 25.000000 75.000000 75.000000 29.762383 42.670360 59.184344
145 50.000000 75.000000 75.000000 37.235191 46.332284 59.175374
146 0.0000000 75.000000 50.000000 22.012495 38.889246 27.481633
147 0.0000000 100.00000 50.000000 38.351430 72.604733 31.935216
148 0.0000000 100.00000 75.000000 43.967551 75.170929 63.505827
149 25.000000 100.00000 75.000000 45.980798 76.219057 63.560507
150 50.000000 100.00000 75.000000 53.488816 79.894062 63.551027
151 75.000000 100.00000 75.000000 66.361096 86.162172 63.631447
152 75.000000 100.00000 100.00000 75.231372 90.221596 112.68920
153 25.000000 0.0000000 100.00000 20.455178 9.3609542 103.58341
154 50.000000 0.0000000 100.00000 27.818496 12.936637 103.49891
155 0.0000000 0.0000000 75.000000 9.6343523 4.4239479 53.867004
156 0.0000000 0.0000000 100.00000 18.457181 8.3949347 103.53061
157 0.0000000 25.000000 100.00000 20.086208 11.688729 104.11051
158 25.000000 25.000000 100.00000 22.142065 12.701717 104.16321
159 50.000000 25.000000 100.00000 29.585163 16.332511 104.07831
160 75.000000 25.000000 100.00000 42.411923 22.569012 104.00721
161 100.00000 25.000000 100.00000 62.690181 32.485006 103.92811
162 100.00000 50.000000 100.00000 68.860392 45.141626 105.63551
163 50.000000 25.000000 75.000000 20.714647 12.345508 54.718941
164 50.000000 50.000000 100.00000 35.683964 28.866072 105.70811
165 0.0000000 50.000000 50.000000 11.562941 17.374750 24.654118
166 0.0000000 50.000000 100.00000 26.080299 24.055999 105.73851
167 0.0000000 75.000000 100.00000 36.541842 45.631305 108.49151
168 25.000000 75.000000 100.00000 38.667199 46.797514 108.54661
169 50.000000 75.000000 100.00000 46.173307 50.502668 108.46211
170 75.000000 75.000000 100.00000 59.057577 56.831588 108.46801
171 100.00000 75.000000 100.00000 79.356235 66.857082 108.39141
172 0.0000000 100.00000 100.00000 52.774157 79.210643 112.86820
173 25.000000 100.00000 100.00000 54.871714 80.315561 112.92230
174 50.000000 100.00000 100.00000 62.371322 83.941865 112.83580
175 100.00000 100.00000 100.00000 95.504140 100.15560 112.68670
END_DATA
CAL    

DESCRIPTOR "Argyll Device Calibration State"
ORIGINATOR "Argyll dispread"
CREATED "Thu Jul 22 15:33:46 2021"
DEVICE_CLASS "DISPLAY"
COLOR_REP "RGB"

BEGIN_ARGYLL_DISPCAL_ARGS
-v2 -ql -t -g2.2 -f1.0 -k0.0 -A4.0 -d1 -c1 -yn -P0.438588450962,0.901129943503,1.0
END_ARGYLL_DISPCAL_ARGS


NUMBER_OF_FIELDS 4
BEGIN_DATA_FORMAT
RGB_I RGB_R RGB_G RGB_B
END_DATA_FORMAT

NUMBER_OF_SETS 256
BEGIN_DATA
0.00000000 0.00000000 0.00000000 0.00000000
0.00392157 0.00327976 0.00331385 0.00326586
0.00784314 0.00661370 0.00667942 0.00659138
0.01176470 0.01000320 0.01009790 0.00997819
0.01568630 0.01344960 0.01357070 0.01342800
0.01960780 0.01695450 0.01709890 0.01694260
0.02352940 0.02051920 0.02068400 0.02052390
0.02745100 0.02414530 0.02432730 0.02417370
0.03137250 0.02783450 0.02803020 0.02789400
0.03529410 0.03158840 0.03179430 0.03168690
0.03921570 0.03540850 0.03562060 0.03555400
0.04313730 0.03929450 0.03950630 0.03949330
0.04705880 0.04324720 0.04344690 0.04350100
0.05098040 0.04726610 0.04743750 0.04757470
0.05490200 0.05133490 0.05146130 0.05170120
0.05882350 0.05542720 0.05550240 0.05585810
0.06274510 0.05953000 0.05955280 0.06003430
0.06666670 0.06362870 0.06359910 0.06421770
0.07058820 0.06770980 0.06763190 0.06839530
0.07450980 0.07176840 0.07164720 0.07256370
0.07843140 0.07580060 0.07564420 0.07671710
0.08235290 0.07980390 0.07962520 0.08085650
0.08627450 0.08378250 0.08359030 0.08498670
0.09019610 0.08773910 0.08754120 0.08910800
0.09411760 0.09167870 0.09148080 0.09322290
0.09803920 0.09561220 0.09541620 0.09733850
0.10196100 0.09955740 0.09935790 0.10146900
0.10588200 0.10352800 0.10331600 0.10562200
0.10980400 0.10753200 0.10729700 0.10979900
0.11372500 0.11157400 0.11130400 0.11400600
0.11764700 0.11567200 0.11533900 0.11825600
0.12156900 0.11983900 0.11940600 0.12255800
0.12549000 0.12408800 0.12351400 0.12691400
0.12941200 0.12842300 0.12766600 0.13132900
0.13333300 0.13284900 0.13186500 0.13580200
0.13725500 0.13736700 0.13611200 0.14033900
0.14117600 0.14197700 0.14040900 0.14493700
0.14509800 0.14666200 0.14474600 0.14957900
0.14902000 0.15140100 0.14910000 0.15425900
0.15294100 0.15618000 0.15346700 0.15896000
0.15686300 0.16098100 0.15784400 0.16368000
0.16078400 0.16579700 0.16223400 0.16841600
0.16470600 0.17061500 0.16663300 0.17314900
0.16862700 0.17540700 0.17103800 0.17786800
0.17254900 0.18016900 0.17544200 0.18256400
0.17647100 0.18489400 0.17984300 0.18723900
0.18039200 0.18957700 0.18423200 0.19188400
0.18431400 0.19421200 0.18861800 0.19650300
0.18823500 0.19881600 0.19300000 0.20110100
0.19215700 0.20339800 0.19738500 0.20569200
0.19607800 0.20796700 0.20177300 0.21027500
0.20000000 0.21251800 0.20615500 0.21485200
0.20392200 0.21705300 0.21052200 0.21941700
0.20784300 0.22156200 0.21487300 0.22396000
0.21176500 0.22604400 0.21920800 0.22848500
0.21568600 0.23049400 0.22352800 0.23298800
0.21960800 0.23490800 0.22784100 0.23747200
0.22352900 0.23929300 0.23214100 0.24193700
0.22745100 0.24364200 0.23642300 0.24637400
0.23137300 0.24794700 0.24069100 0.25078200
0.23529400 0.25221100 0.24493800 0.25516400
0.23921600 0.25644200 0.24916300 0.25951700
0.24313700 0.26064000 0.25336600 0.26383400
0.24705900 0.26480300 0.25754400 0.26811500
0.25098000 0.26892900 0.26169800 0.27236200
0.25490200 0.27302200 0.26582600 0.27658200
0.25882400 0.27709400 0.26993000 0.28077700
0.26274500 0.28115100 0.27401700 0.28494200
0.26666700 0.28518400 0.27809100 0.28909000
0.27058800 0.28921500 0.28215000 0.29325000
0.27451000 0.29326900 0.28618900 0.29741900
0.27843100 0.29734500 0.29023400 0.30159600
0.28235300 0.30143800 0.29429900 0.30578700
0.28627500 0.30555900 0.29837500 0.30999100
0.29019600 0.30970500 0.30246000 0.31420100
0.29411800 0.31386700 0.30656200 0.31840700
0.29803900 0.31803100 0.31068100 0.32260600
0.30196100 0.32219800 0.31482000 0.32679700
0.30588200 0.32636200 0.31897700 0.33098100
0.30980400 0.33052600 0.32314300 0.33516300
0.31372500 0.33469300 0.32731100 0.33934700
0.31764700 0.33886100 0.33148200 0.34352600
0.32156900 0.34302400 0.33565300 0.34770200
0.32549000 0.34718200 0.33980900 0.35187600
0.32941200 0.35134000 0.34394700 0.35604000
0.33333300 0.35549100 0.34806600 0.36019500
0.33725500 0.35963700 0.35216500 0.36433100
0.34117600 0.36377200 0.35624200 0.36844900
0.34509800 0.36789600 0.36030600 0.37254800
0.34902000 0.37200300 0.36435800 0.37663200
0.35294100 0.37609500 0.36840800 0.38070100
0.35686300 0.38017400 0.37245700 0.38476300
0.36078400 0.38424800 0.37650600 0.38882700
0.36470600 0.38833100 0.38055700 0.39289200
0.36862700 0.39242300 0.38461600 0.39695000
0.37254900 0.39651300 0.38869200 0.40100700
0.37647100 0.40060600 0.39278000 0.40509700
0.38039200 0.40473000 0.39687200 0.40922600
0.38431400 0.40889400 0.40096700 0.41338700
0.38823500 0.41309000 0.40508600 0.41757000
0.39215700 0.41730400 0.40923400 0.42177300
0.39607800 0.42153400 0.41340300 0.42600000
0.40000000 0.42578800 0.41757400 0.43024900
0.40392200 0.43006800 0.42174600 0.43450600
0.40784300 0.43435200 0.42592300 0.43876500
0.41176500 0.43863100 0.43010100 0.44301600
0.41568600 0.44289900 0.43426200 0.44725500
0.41960800 0.44715000 0.43839700 0.45148200
0.42352900 0.45138500 0.44250400 0.45568300
0.42745100 0.45558900 0.44658100 0.45985800
0.43137300 0.45977200 0.45063800 0.46400800
0.43529400 0.46393500 0.45467100 0.46813000
0.43921600 0.46807100 0.45868300 0.47222400
0.44313700 0.47218000 0.46267500 0.47629600
0.44705900 0.47627000 0.46665000 0.48035400
0.45098000 0.48035100 0.47060600 0.48440300
0.45490200 0.48442700 0.47454700 0.48844200
0.45882400 0.48849500 0.47848000 0.49247000
0.46274500 0.49255600 0.48241300 0.49648800
0.46666700 0.49660800 0.48634200 0.50049700
0.47058800 0.50065400 0.49026900 0.50449900
0.47451000 0.50469300 0.49419200 0.50849000
0.47843100 0.50871700 0.49811100 0.51246700
0.48235300 0.51272600 0.50202800 0.51643100
0.48627500 0.51671900 0.50594000 0.52038000
0.49019600 0.52069700 0.50984800 0.52431800
0.49411800 0.52466300 0.51375200 0.52823600
0.49803900 0.52860900 0.51765100 0.53213100
0.50196100 0.53252900 0.52154700 0.53599700
0.50588200 0.53641700 0.52544100 0.53984000
0.50980400 0.54027700 0.52932600 0.54366300
0.51372500 0.54411400 0.53319600 0.54746800
0.51764700 0.54792700 0.53704800 0.55125600
0.52156900 0.55171700 0.54088600 0.55502000
0.52549000 0.55547200 0.54470600 0.55876200
0.52941200 0.55919800 0.54851200 0.56248900
0.53333300 0.56290600 0.55231200 0.56620100
0.53725500 0.56659000 0.55609900 0.56988700
0.54117600 0.57024200 0.55987800 0.57355400
0.54509800 0.57387200 0.56364900 0.57722800
0.54902000 0.57750700 0.56740900 0.58091100
0.55294100 0.58114900 0.57115200 0.58460000
0.55686300 0.58479700 0.57489400 0.58829300
0.56078400 0.58845100 0.57865200 0.59199400
0.56470600 0.59211900 0.58242400 0.59570400
0.56862700 0.59579900 0.58620800 0.59942400
0.57254900 0.59949400 0.59000800 0.60315800
0.57647100 0.60320400 0.59383100 0.60690900
0.58039200 0.60693300 0.59767200 0.61067900
0.58431400 0.61068200 0.60152800 0.61446500
0.58823500 0.61445100 0.60538900 0.61826300
0.59215700 0.61823200 0.60925300 0.62206600
0.59607800 0.62201300 0.61311900 0.62586500
0.60000000 0.62578100 0.61698100 0.62966300
0.60392200 0.62954000 0.62084100 0.63345900
0.60784300 0.63328900 0.62469000 0.63725200
0.61176500 0.63702900 0.62852600 0.64104500
0.61568600 0.64077000 0.63235200 0.64483900
0.61960800 0.64451500 0.63616500 0.64862700
0.62352900 0.64825700 0.63996900 0.65239700
0.62745100 0.65198500 0.64376700 0.65613600
0.63137300 0.65568300 0.64756200 0.65984100
0.63529400 0.65935000 0.65134400 0.66351200
0.63921600 0.66298700 0.65510400 0.66714900
0.64313700 0.66659300 0.65883700 0.67078400
0.64705900 0.67019100 0.66254200 0.67443000
0.65098000 0.67379900 0.66622000 0.67808800
0.65490200 0.67742000 0.66988600 0.68175800
0.65882400 0.68105300 0.67356800 0.68543600
0.66274500 0.68469600 0.67726800 0.68911700
0.66666700 0.68834200 0.68098500 0.69279200
0.67058800 0.69198100 0.68471300 0.69646400
0.67451000 0.69561300 0.68844300 0.70013400
0.67843100 0.69924000 0.69216900 0.70380700
0.68235300 0.70286900 0.69589100 0.70748500
0.68627500 0.70650500 0.69960800 0.71117100
0.69019600 0.71015200 0.70332600 0.71486600
0.69411800 0.71381400 0.70705000 0.71856300
0.69803900 0.71748500 0.71078700 0.72225300
0.70196100 0.72114800 0.71453800 0.72593300
0.70588200 0.72479900 0.71828900 0.72959900
0.70980400 0.72843100 0.72203200 0.73325400
0.71372500 0.73204500 0.72576200 0.73689800
0.71764700 0.73564300 0.72947800 0.74053100
0.72156900 0.73922500 0.73319000 0.74415600
0.72549000 0.74279500 0.73689600 0.74777500
0.72941200 0.74635200 0.74059400 0.75138800
0.73333300 0.74989900 0.74428700 0.75499300
0.73725500 0.75343600 0.74797400 0.75859100
0.74117600 0.75696900 0.75165500 0.76218000
0.74509800 0.76049600 0.75533000 0.76577000
0.74902000 0.76402100 0.75899600 0.76935700
0.75294100 0.76755200 0.76265400 0.77293700
0.75686300 0.77108100 0.76631100 0.77650500
0.76078400 0.77460200 0.76996100 0.78006200
0.76470600 0.77810700 0.77360300 0.78361700
0.76862700 0.78160600 0.77723200 0.78717100
0.77254900 0.78510600 0.78084800 0.79071600
0.77647100 0.78860700 0.78445300 0.79424900
0.78039200 0.79210200 0.78805200 0.79776800
0.78431400 0.79558700 0.79164200 0.80127400
0.78823500 0.79906400 0.79522200 0.80479400
0.79215700 0.80253900 0.79879100 0.80833300
0.79607800 0.80603500 0.80235100 0.81189000
0.80000000 0.80955300 0.80591800 0.81545200
0.80392200 0.81308600 0.80949600 0.81901500
0.80784300 0.81662200 0.81307700 0.82258400
0.81176500 0.82016100 0.81665300 0.82616300
0.81568600 0.82371400 0.82022400 0.82975600
0.81960800 0.82728800 0.82379500 0.83336600
0.82352900 0.83088600 0.82737100 0.83698000
0.82745100 0.83450600 0.83095400 0.84059200
0.83137300 0.83813000 0.83454200 0.84420000
0.83529400 0.84175200 0.83813200 0.84780700
0.83921600 0.84537300 0.84172000 0.85141300
0.84313700 0.84899800 0.84530800 0.85500900
0.84705900 0.85262500 0.84889700 0.85859300
0.85098000 0.85624100 0.85248600 0.86219000
0.85490200 0.85986000 0.85606700 0.86580100
0.85882400 0.86350300 0.85964900 0.86942300
0.86274500 0.86716900 0.86325200 0.87305500
0.86666700 0.87085400 0.86687600 0.87669600
0.87058800 0.87455900 0.87051400 0.88035100
0.87451000 0.87828500 0.87416500 0.88401900
0.87843100 0.88203700 0.87783200 0.88769500
0.88235300 0.88581000 0.88151500 0.89137900
0.88627500 0.88960000 0.88521200 0.89507200
0.89019600 0.89340700 0.88891400 0.89877500
0.89411800 0.89723400 0.89262400 0.90248900
0.89803900 0.90107900 0.89634400 0.90621800
0.90196100 0.90494800 0.90007200 0.90995200
0.90588200 0.90883600 0.90381100 0.91369400
0.90980400 0.91273300 0.90756300 0.91744200
0.91372500 0.91664000 0.91132100 0.92119500
0.91764700 0.92055400 0.91509500 0.92495100
0.92156900 0.92447800 0.91888400 0.92870400
0.92549000 0.92840100 0.92269000 0.93244600
0.92941200 0.93231400 0.92651600 0.93617100
0.93333300 0.93621100 0.93036200 0.93988000
0.93725500 0.94009300 0.93423100 0.94356800
0.94117600 0.94395400 0.93812800 0.94723900
0.94509800 0.94779700 0.94205300 0.95088800
0.94902000 0.95162000 0.94601400 0.95451100
0.95294100 0.95541700 0.95000700 0.95811100
0.95686300 0.95919500 0.95403100 0.96168800
0.96078400 0.96295500 0.95809000 0.96524500
0.96470600 0.96670200 0.96217700 0.96878700
0.96862700 0.97044000 0.96629300 0.97231400
0.97254900 0.97416800 0.97043200 0.97582600
0.97647100 0.97788700 0.97459200 0.97932300
0.98039200 0.98159600 0.97877300 0.98280600
0.98431400 0.98529600 0.98297500 0.98627400
0.98823500 0.98898600 0.98719900 0.98972700
0.99215700 0.99266700 0.99144400 0.99316600
0.99607800 0.99633800 0.99571100 0.99659000
1.00000000 1.00000000 1.00000000 1.00000000
END_DATA
